!!!COM:	Beethoven
!!!OTL:	Op.18 no1:4
**kern	**kern	**kern	**kern	**dynam
*part4	*part3	*part2	*part1	*part1
*staff4	*staff3	*staff2	*staff1	*
*I"Cello	*I"Viola	*I"Violin II	*I"Violin I	*
*I'Vc.	*I'Vla.	*I'Vln. II	*I'Vln. I	*
*clefF4	*clefC3	*clefG2	*clefG2	*
*k[b-]	*k[b-]	*k[b-]	*k[b-]	*
*d:	*d:	*d:	*d:	*
*M2/4	*M2/4	*M2/4	*M2/4	*
=1	=1	=1	=1	=1
2r	2r	2r	(>24ffLL	.
.	.	.	24ee	.
.	.	.	24ffJJ	.
.	.	.	24ggLL	.
.	.	.	24ff	.
.	.	.	24eeJJ	.
.	.	.	24ddLL	.
.	.	.	24cc	.
.	.	.	24b-JJ	.
.	.	.	24aLL	.
.	.	.	24g	.
.	.	.	24fJJ)	.
=2	=2	=2	=2	=2
8GG'L	8C'L	8B-'L	8e'L	.
8GG'	8C'	8B-'	8e'	.
8EE'J	8C'J	8B-'J	8g'J	.
8r	8r	8r	8r	.
=3	=3	=3	=3	=3
2r	2r	2r	(>24ggLL	.
.	.	.	24ff#X	.
.	.	.	24ggJJ	.
.	.	.	24aaLL	.
.	.	.	24gg	.
.	.	.	24ffnJJ	.
.	.	.	24eeLL	.
.	.	.	24dd	.
.	.	.	24ccJJ	.
.	.	.	24b-LL	.
.	.	.	24a	.
.	.	.	24gJJ)	.
=4	=4	=4	=4	=4
8AA'L	8C'L	8c'L	8f'L	.
8AA'	8C'	8c'	8f'	.
8FF'J	8C'J	8A'J	8a'J	.
8r	8r	8r	8r	.
=5	=5	=5	=5	=5
8r	8r	8r	(>24ccLL	.
.	.	.	24bn	.
.	.	.	24cc	.
(8EL	4c	8gL	24dd	.
.	.	.	24cc	.
.	.	.	24b-XJJ)	.
8F)	.	8c	(8aL	.
8FF'J	8c	8aJ)	16ffJk)	.
.	.	.	16r	.
=6	=6	=6	=6	=6
8r	8r	8r	(>24ccLL	.
.	.	.	24bn	.
.	.	.	24ccJJ	.
(8EL	4c	8gL	24ddLL	.
.	.	.	24cc	.
.	.	.	24b-XJJ)	.
8F)	.	8c	(8aL	.
8FF'J	8c	8aJ)	16aaJk)	.
.	.	.	16r	.
=7	=7	=7	=7	=7
8r	8r	8r	(>24ccLL	.
.	.	.	24bn	.
.	.	.	24ccJJ	.
(8EL	4c	8gL	24ddLL	.
.	.	.	24cc)	.
.	.	.	24b-XJJ	.
8F	.	8c	(8aL	.
8F#XJ)	8d)	8aJ)	16cccJk)	.
.	.	.	16r	.
=8	=8	=8	=8	=8
8G'L	(>8eL	(<8gL	(>8ccL	.
8GG'	8f	8bn	16eeL	.
.	.	.	16ddJ	.
8C'J	8eJ)	8gJ)	8ccJ	.
8r	8r	8r	8r	.
=9	=9	=9	=9	=9
2r	(>24fLL	2r	2r	.
.	24e	.	.	.
.	24fJJ	.	.	.
.	24gLL	.	.	.
.	24f	.	.	.
.	24eJJ	.	.	.
.	24dLL	.	.	.
.	24c	.	.	.
.	24B-JJ	.	.	.
.	24ALL	.	.	.
.	24G	.	.	.
.	24FJJ)	.	.	.
=10	=10	=10	=10	=10
8GG'L	8E'L	8c'L	4r	.
8GG'	8E'	8c'	.	.
8EE'J	8G'J	8b-'J	8bb-'L	.
8r	8r	8r	8bb-'J	.
=11	=11	=11	=11	=11
2r	(>24gLL	2r	8ee	.
.	24f#X	.	.	.
.	24gJJ	.	.	.
.	24aLL	.	8r	.
.	24g	.	.	.
.	24fnJJ	.	.	.
.	24eLL	.	4r	.
.	24d	.	.	.
.	24cJJ	.	.	.
.	24B-LL	.	.	.
.	24A	.	.	.
.	24GJJ)	.	.	.
=12	=12	=12	=12	=12
8AA'L	8F'L	8c'L	4r	.
8AA'	8F'	8c'	.	.
8FF'J	8A'J	8cc'J	8ccc'L	.
8r	8r	8r	8ccc'J	.
=13	=13	=13	=13	=13
8r	8r	8r	(>24ccLL	.
.	.	.	24bn	.
.	.	.	24ccJJ	.
(8EL	4c	(8g	24ddLL	.
.	.	.	24cc	.
.	.	.	24b-XJJ)	.
8F)	.	8cL	8aL	.
8FF'J	8c	8aJ)	16ffJk)	.
.	.	.	16r	.
=14	=14	=14	=14	=14
8r	8r	8r	(>24ccLL	.
.	.	.	24bn	.
.	.	.	24ccJJ	.
(8EL	4c	(8gL	24ddLL	.
.	.	.	24cc	.
.	.	.	24bJJ)	.
8F)	.	8c	(8aL	.
8FF'J	8c	8aJ)	16aaJk)	.
.	.	.	16r	.
=15	=15	=15	=15	=15
!	!	!	!LO:TX:b:Bi:t=Cresc.	!
8r	8r	8r	(>24ccLL	.
.	.	.	24b-	.
.	.	.	24ccJJ	.
!LO:TX:b:Bi:t=Cresc.	!LO:TX:b:Bi:t=Cresc.	!LO:TX:b:Bi:t=Cresc.	!	!
(8EL	4c	(8gL	24ddLL	.
.	.	.	24cc	.
.	.	.	(24b-JJ	.
8F)	.	8c)	8a'L)	.
8F#X'J	8A'	8cc'J	8eee-X'J)	.
.	2r	.	.	.
=16	=16	=16	=16	=16
8G'L	.	8b-'L	8ddd'L	.
8C#X'	.	8b-'	8eee'	.
8D'	.	8a'	8fff'	.
8BBn'J	.	8f'J	8g'J	.
.	8B-'L	.	.	.
.	8G'	.	.	.
.	8F'	.	.	.
.	8dJ	.	.	.
=17	=17	=17	=17	=17
4C'~	.	4f	4a	.
4CC'~	.	4B-	4G 4e	.
.	4c	.	.	.
.	4C	.	.	.
=18	=18	=18	=18	=18
4FF'~	.	4A	4A 4f	.
4r	.	4r	4r	.
.	4F	.	.	.
.	4r	.	.	.
=19	=19	=19	=19	=19
2r	.	4r	(<16ALL	.
.	.	.	16c	.
.	.	.	16g	.
.	.	.	16fJJ	.
.	.	(16ALL	16cLL	.
.	.	16c	16f	.
.	.	16g	16b-	.
.	.	16fJJ)	16aJJ)	.
.	2r	.	.	.
=20	=20	=20	=20	=20
2r	.	4e	4g	.
.	.	4r	4r	.
.	(<16BnLL	.	.	.
.	16c	.	.	.
.	16B	.	.	.
.	16cJJ	.	.	.
.	16BLL	.	.	.
.	16c	.	.	.
.	16G	.	.	.
.	16EJJ)	.	.	.
=21	=21	=21	=21	=21
2r	.	4r	(<16cLL	.
.	.	.	16e	.
.	.	.	16a	.
.	.	.	16gJJ	.
.	.	(<16cLL	16eLL	.
.	.	16e	16g	.
.	.	16a	16cc	.
.	.	16gJJ)	16b-JJ)	.
.	4C	.	.	.
.	4r	.	.	.
=22	=22	=22	=22	=22
(>16ELL	.	4f	4a	.
16F	.	.	.	.
16E	.	.	.	.
16FJJ	.	.	.	.
16ELL	.	4r	4r	.
16F	.	.	.	.
16C	.	.	.	.
16AAJJ)	.	.	.	.
.	2r	.	.	.
=23	=23	=23	=23	=23
4FF	.	2r	(<16cLL	.
.	.	.	16f	.
.	.	.	16b-	.
.	.	.	16aJJ	.
4r	.	.	16fLL	.
.	.	.	16a	.
.	.	.	16dd	.
.	.	.	16ccJJ)	.
.	2r	.	.	.
=24	=24	=24	=24	=24
4r	.	4r	(>16aLL	.
.	.	.	16cc	.
.	.	.	16gg	.
.	.	.	16ffJJ	.
8r	.	8r	16ccLL	.
.	.	.	16ff	.
(8F	.	(8a	16bb-	.
.	.	.	16aaJJ)	.
.	4r	.	.	.
.	8r	.	.	.
.	[8c	.	.	.
=25	=25	=25	=25	=25
8E'L)	.	8g'L)	(>16ggLL	.
.	.	.	16ff	.
8C'	.	(8e'	16ee	.
.	.	.	16ddJJ	.
8E'	.	8g'	16ccLL	.
.	.	.	16cc#X	.
8C'J	.	8e'J)	16dd)	.
.	.	.	16gJJ	.
.	8c'L]	.	.	.
.	8c'	.	.	.
.	8c'	.	.	.
.	8c'J	.	.	.
=26	=26	=26	=26	=26
8F'L	.	(4g	(>4b-	.
8FF'	.	.	.	.
8F'	.	8f)	8a)	.
8A'J	.	8a'	8a'	.
.	4.c	.	.	.
.	8a'	.	.	.
=27	=27	=27	=27	=27
4.AA'	.	4.A	4.A	.
(24AALL	.	(24ALL	(24ALL	.
24BBn	.	24B-	24B-	.
24C#XJJ)	.	24c#XJJ)	24c#XJJ)	.
.	(<4.A	.	.	.
.	24ALL	.	.	.
.	24B-	.	.	.
.	24c#XJJ)	.	.	.
=28	=28	=28	=28	=28
8D'L	.	8d'L	8d'L	.
8E'	.	8e'J	8e'	.
8F'	.	8f'L	8f'	.
8GJ	.	8g'J	8g'J	.
.	8d'L	.	.	.
.	8E'	.	.	.
.	8F'	.	.	.
.	8G'J	.	.	.
=29	=29	=29	=29	=29
8A'L	.	8a'L	8aL	.
8Bn'	.	8bn'	8bn'J	.
8c'	.	8cc'	8cc'L	.
8c#X'J	.	8cc#X'J	8cc#X'J	.
.	8A'L	.	.	.
.	8Bn'	.	.	.
.	8c'	.	.	.
.	8c#X'J	.	.	.
=30	=30	=30	=30	=30
8D'L	.	8dd'L	8dd'L	.
8E'J	.	8ee'J	8ee'J	.
(16qqD/LL	.	(16qqdd/LL	16qqdd/LL	.
16qqE/JJ)	.	16qqee/JJ	16qqee/JJ	.
[4F	.	[4ff)	[4ff	.
.	8d'L	.	.	.
.	8e'J	.	.	.
.	(16qqd/LL	.	.	.
.	16qqe/JJ)	.	.	.
.	[4f	.	.	.
=31	=31	=31	=31	=31
8fL	.	(8ffL]	(>8ffL]	.
8e	.	8ee)	8ee)	.
(8dM	.	8ddM	8ddM	.
8cJ)	.	8ccJ)	8ccJ)	.
.	(>8fL]	.	.	.
.	8e)	.	.	.
.	(8d	.	.	.
.	8cJ)	.	.	.
=32	=32	=32	=32	=32
(>8B-ML	.	(8b-ML	(<8b-ML	.
8A)	.	8a)	8a	.
(8GM	.	(8gM	8gM)	.
8FJ)	.	8fJ)	8fJ)	.
.	(8B-L	.	.	.
.	8A)	.	.	.
.	(8G	.	.	.
.	8FJ)	.	.	.
=33	=33	=33	=33	=33
(>8EmL	.	(8emL	(<8emL	.
8D)	.	8d)	8dJ	.
(8A'	.	(8a'	8a'L)	.
8AA'J)	.	8A'J)	8A'J)	.
.	(8EL	.	.	.
.	8D)	.	.	.
.	8A'	.	.	.
.	8A'J	.	.	.
=34	=34	=34	=34	=34
4D)	.	8d	(<16dLL	.
.	.	.	16f	.
.	.	8r	16a	.
.	.	.	16gJJ	.
4r	.	16dLL	16fLL	.
.	.	16f	16a	.
.	.	16a	16ff	.
.	.	16fJJ)	16ddJJ)	.
.	4D	.	.	.
.	4r	.	.	.
=35	=35	=35	=35	=35
2r	.	8e	8cc#X	.
.	.	8r	8r	.
.	.	4r	4r	.
.	(>16g#XLL	.	.	.
.	16a	.	.	.
.	16g#	.	.	.
.	16aJJ	.	.	.
.	16g#LL	.	.	.
.	16a	.	.	.
.	16e)	.	.	.
.	16c#XJJ	.	.	.
=36	=36	=36	=36	=36
2r	.	4r	(>16aLL	.
.	.	.	16cc#X	.
.	.	.	16ee	.
.	.	.	16ddJJ	.
.	.	16aLL	16cc#LL	.
.	.	16cc#X	16ee	.
.	.	16ff	16aa	.
.	.	16eeJJ)	16ggJJ)	.
.	8A	.	.	.
.	8r	.	.	.
.	4r	.	.	.
=37	=37	=37	=37	=37
(16c#XLL	.	8dd	8ff	.
16d	.	.	.	.
16c#	.	8r	8r	.
16dJJ	.	.	.	.
16c#LL	.	4r	4r	.
16d	.	.	.	.
16A	.	.	.	.
16FJJ)	.	.	.	.
.	2r	.	.	.
=38	=38	=38	=38	=38
8D	.	(<16ALL	2r	.
.	.	16d	.	.
8r	.	16f	.	.
.	.	16eJJ	.	.
4r	.	16dLL	.	.
.	.	16f	.	.
.	.	16b-)	.	.
.	.	16aJJ	.	.
.	2r	.	.	.
=39	=39	=39	=39	=39
8BBn	.	8g#X	(>16ddd#XLL	.
.	.	.	16eee	.
8r	.	8r	16ddd#	.
.	.	.	16eeeJJ	.
4r	.	4r	16ddd#LL	.
.	.	.	16eee	.
.	.	.	16bbn	.
.	.	.	16gg#XJJ)	.
.	8Bn 8d	.	.	.
.	8r	.	.	.
.	4r	.	.	.
=40	=40	=40	=40	=40
8G#X	.	(16eLL	8ee	.
.	.	16g#X	.	.
8r	.	16bn	8r	.
.	.	16aJJ	.	.
8E	.	16g#LL	4r	.
.	.	16b-X	.	.
8r	.	16ee	.	.
.	.	16ddJJ)	.	.
.	8Bn	.	.	.
.	8r	.	.	.
.	8B	.	.	.
.	8r	.	.	.
=41	=41	=41	=41	=41
8AAL	.	16r	4r	.
!	!	!LO:TX:b:Bi:t=Cresc.	!	!
.	.	16eLL	.	.
8A	.	16dd	.	.
.	.	16ccJJ)	.	.
!	!	!	!LO:TX:b:Bi:t=Cresc.	!
8GG	.	16r	[4aa	.
.	.	(16aLL	.	.
8GJ	.	16dd	.	.
.	.	16cc#XJJ)	.	.
.	(<8cL	.	.	.
!	!LO:TX:b:Bi:t=Cresc.	!	!	!
.	8eJ)	.	.	.
.	8r	.	.	.
.	8e	.	.	.
=42	=42	=42	=42	=42
8FF#XL	.	16r	(4aa]	.
.	.	(16aLL	.	.
8F#X	.	16ee	.	.
.	.	16ddJJ)	.	.
8DD	.	16r	4ff#X)	.
.	.	16aLL	.	.
8DJ	.	16dd)	.	.
.	.	16ccJJ	.	.
.	8r	.	.	.
.	8a	.	.	.
.	8r	.	.	.
.	8d	.	.	.
=43	=43	=43	=43	=43
(>8GGL	.	8bn	(>4.gg	.
8DD	.	8r	.	.
8FF#X	.	4r	.	.
8GGJ	.	.	32aaLLL	.
.	.	.	32gg	.
.	.	.	32ff#X	.
.	.	.	32eeJJJ)	.
.	(<[2D 2Bn	.	.	.
=44	=44	=44	=44	=44
8AAL	.	8r	(>8dd'L	.
8DD	.	8d'L	8dd')	.
8GG#X	.	8d'	8dd'	.
8AAJ)	.	8d'J	8dd'J	.
.	2D_ 2c	.	.	.
=45	=45	=45	=45	=45
(>8BBnL	.	(<4.g	4dd	.
8DD	.	.	.	.
8AA	.	.	4r	.
8BBJ	.	32aLLL	.	.
.	.	32g	.	.
.	.	32f#X	.	.
.	.	32eJJJ)	.	.
!	!	!	!LO:TX:a:Bi:t=Cresc.	!
.	8D]) 8d	.	.	.
.	8DL	.	.	.
.	8F#X	.	.	.
.	8GJ	.	.	.
=46	=46	=46	=46	=46
8CL	.	(8d'L	8r	.
8DD	.	8d')	8dd'L	.
8EE	.	8d'	8dd'	.
8FF#XJ)	.	8d'J	8dd'J	.
.	8AL	.	.	.
.	8D	.	.	.
.	8G	.	.	.
.	8AJ)	.	.	.
=47	=47	=47	=47	=47
(>8GGL	.	4d	(>16aaLL	.
.	.	.	16gg	.
8DD	.	.	16ff#X	.
.	.	.	16ggJJ	.
8FF#X	.	4r	16aaLL	.
.	.	.	16gg	.
8GGJ	.	.	16ff#	.
.	.	.	16eeJJ)	.
.	(<8BnL	.	.	.
.	8D	.	.	.
.	8A	.	.	.
.	8BJ)	.	.	.
=48	=48	=48	=48	=48
8AAL	.	8r	(>8dd'L	.
8DD	.	8d'L	8dd')	.
8GG#X	.	8d'	8dd'	.
8AAJ	.	8d'J	8dd'J	.
.	(<8cL	.	.	.
.	8D	.	.	.
.	8Bn	.	.	.
.	8cJ)	.	.	.
=49	=49	=49	=49	=49
!LO:TX:b:Bi:t=Cresc.	!	!LO:TX:b:Bi:t=Cresc.	!	!
(<8BBnL)	.	(<16aLL	8dd	.
.	.	16g	.	.
8GG	.	16f#X	8r	.
.	.	16gJJ	.	.
8BB	.	16aLL	4r	.
.	.	16g	.	.
8DJ)	.	16fn	.	.
.	.	16e-XJJ)	.	.
!	!LO:TX:b:Bi:t=Cresc.	!	!	!
.	8d	.	.	.
.	4Bn	.	.	.
.	[8B	.	.	.
=50	=50	=50	=50	=50
(<8GL	.	(8f'L	8r	.
!	!	!	!LO:TX:b:Bi:t=Cresc.	!
8GG	.	8f'J)	8gg'L	.
8AA	.	8f'L	8gg'	.
8BBnJ)	.	8f'J	8gg'J	.
.	(<8B-L	.	.	.
.	8Bn	.	.	.
.	8c	.	.	.
.	8dJ)	.	.	.
=51	=51	=51	=51	=51
(<8CL	.	4e	(>4.ccc	.
8GG	.	.	.	.
8BBn	.	4r	.	.
8CJ	.	.	32dddLLL	.
.	.	.	32ccc	.
.	.	.	32bbn	.
.	.	.	32aaJJJ)	.
.	[2G 2e	.	.	.
.	2r	.	.	.
=52	=52	=52	=52	=52
8DL	.	8r	8gg'L	.
8GG	.	8g'L	8gg'	.
8C	.	8g'	8gg'	.
8DJ)	.	8g'J	8gg'J	.
.	[2G 2f	.	.	.
=53	=53	=53	=53	=53
!LO:TX:b:Bi:t=Cresc.	!	!	!	!
(<8E'L	.	(4.cc	4gg'	.
8GG	.	.	.	.
8D	.	.	4r	.
!	!	!LO:TX:b:Bi:t=Cresc.	!	!
8EJ	.	32ddLLL	.	.
.	.	32cc	.	.
.	.	32bn	.	.
.	.	32aJJJ)	.	.
!	!LO:TX:b:Bi:t=Cresc.	!	!	!
.	(<8G] 8g	.	.	.
.	8GL	.	.	.
.	8Bn	.	.	.
.	8cJ	.	.	.
=54	=54	=54	=54	=54
8FL	.	(8g'L	8r	.
!	!	!	!LO:TX:b:Bi:t=Cresc.	!
8GG	.	8g')	8gg'L	.
8AA	.	8g'	8gg'	.
8BBnJ)	.	8g'J	8gg'J	.
.	8dL	.	.	.
.	8G	.	.	.
.	8c	.	.	.
.	8dJ)	.	.	.
=55	=55	=55	=55	=55
(<8CL	.	4g	(16dddLL	.
.	.	.	16ccc	.
8GG	.	.	16bbn	.
.	.	.	16cccJJ	.
8BBn	.	4r	16dddLL	.
.	.	.	16ccc	.
8CJ	.	.	16bb	.
.	.	.	16aaJJ)	.
.	(<8eL	.	.	.
.	8G	.	.	.
.	8d	.	.	.
.	8eJ	.	.	.
=56	=56	=56	=56	=56
8DL	.	8r	8gg'L	.
8GG	.	8g'L	8gg'	.
8C#X	.	8g'	8gg'	.
8DJ)	.	8g'J	8gg'J	.
.	8fL	.	.	.
.	8G	.	.	.
.	8e	.	.	.
.	8fJ)	.	.	.
=57	=57	=57	=57	=57
(<8EL	.	(>16ddLL	4gg	.
!	!	!LO:TX:b:Bi:t=Cresc.	!	!
.	.	16cc	.	.
!LO:TX:b:Bi:t=Cresc.	!	!	!	!
!LO:TX:a:Bi:t=Cresc.	!	!	!	!
8GG	.	16bn	.	.
.	.	16ccJJ	.	.
8D	.	16ddLL	4r	.
.	.	16cc	.	.
8EJ	.	16b)	.	.
.	.	16aJJ	.	.
.	(<8gL	.	.	.
.	8G	.	.	.
.	8Bn	.	.	.
.	8cJ)	.	.	.
=58	=58	=58	=58	=58
8FL	.	8g'L	8r	.
!	!	!	!LO:TX:b:Bi:t=Cresc.	!
8GG	.	8g'	8gg'L	.
8AA	.	8g'	8gg'	.
8BBnJ)	.	8g'J	8gg'J	.
.	(8dL	.	.	.
.	8G	.	.	.
.	8c	.	.	.
.	8dJ)	.	.	.
=59	=59	=59	=59	=59
8C	.	8g	(>16aaLL	.
.	.	.	16gg	p
8r	.	8r	16ff#X	.
.	.	.	16ggJJ	.
4r	.	8r	16aaLL	.
.	.	.	16gg	.
.	.	[8g	16ffn	.
.	.	.	16ddJJ)	.
.	8e	.	.	.
.	8r	.	.	.
.	8r	.	.	.
.	(8Bn	.	.	.
=60	=60	=60	=60	=60
2r	.	(8gL]	(>16ffLL	.
.	.	.	16ee	.
.	.	8ccJ)	16dd#X	.
.	.	.	16eeJJ	.
.	.	8r	16ffLL	.
.	.	.	16ee	.
.	.	[8e	16ddn	.
.	.	.	16bnJJ)	.
.	8c)	.	.	.
.	8r	.	.	.
.	8r	.	.	.
.	(8G#X	.	.	.
=61	=61	=61	=61	=61
2r	.	(8eL]	(>16ddLL	.
.	.	.	16cc	.
.	.	8aJ)	16bn	.
.	.	.	16ccJJ	.
.	.	8r	16ddLL	.
.	.	.	16cc	.
.	.	[8c	16b-X	.
.	.	.	16gJJ)	.
.	8A)	.	.	.
.	8r	.	.	.
.	8r	.	.	.
.	(8E	.	.	.
=62	=62	=62	=62	=62
2r	.	8c]	(>16g#XLL	.
.	.	.	16a	.
.	.	8r	16b-	.
.	.	.	16bnJJ	.
.	.	4r	16ccLL	.
.	.	.	16cc#X	.
.	.	.	16dd	.
.	.	.	16ee-XJJ	.
.	8F)	.	.	.
.	8r	.	.	.
.	4r	.	.	.
=63	=63	=63	=63	=63
8F'	.	8r	16eeLL	.
.	.	.	16ff	.
8r	.	8a	16ff#X	.
.	.	.	16ggJJ	.
8F'	.	8r	16gg#XLL	.
.	.	.	16aa	.
8r	.	8a	16ffn)	.
.	.	.	16ddJJ	.
.	8r	.	.	.
.	8c	.	.	.
.	8r	.	.	.
.	8f	.	.	.
=64	=64	=64	=64	=64
8G'	.	8r	(16ddLL	.
.	.	.	16cc)	.
8r	.	8g	16cc'	.
.	.	.	16cc'JJ	.
8GG'	.	8r	(16ccLL	.
.	.	.	16bn)	.
8r	.	8f	16b'	.
.	.	.	16b'JJ	.
.	8r	.	.	.
.	8e	.	.	.
.	8r	.	.	.
.	8d	.	.	.
=65	=65	=65	=65	=65
4r	.	(16aLL	4r	.
.	.	16g	.	.
.	.	16f#X	.	.
.	.	16gJJ	.	.
8r	.	16aLL	8r	.
.	.	16g	.	.
(8BBn	.	16fn	[8gg	.
.	.	16dJJ)	.	.
.	2r	.	.	.
=66	=66	=66	=66	=66
8C)	.	(16fLL	(>8ggL]	.
.	.	16e	.	.
8r	.	16d#X	8cccJ)	.
.	.	16eJJ	.	.
8r	.	16fLL	8r	.
.	.	16e	.	.
(8GG#X	.	16dn	8ee	.
.	.	16BnJJ)	.	.
.	8r	.	.	.
.	(8GL	.	.	.
.	8cJ)	.	.	.
.	8r	.	.	.
=67	=67	=67	=67	=67
8AA)	.	8c	(16dddLL	.
.	.	.	16ccc	.
8r	.	8r	16bbn	.
.	.	.	16cccJJ	.
8r	.	8r	16dddLL	.
.	.	.	16ccc	.
(8E	.	[8cc	16bb-X	.
.	.	.	16ggJJ)	.
.	8r	.	.	.
.	(8EL	.	.	.
.	8AJ)	.	.	.
=68	=68	=68	=68	=68
8F)	.	(8ccL]	(>16bb-LL	.
.	.	.	16aa	.
8r	.	8ffJ)	16gg#X	.
.	.	.	16aaJJ	.
8r	.	8r	16bb-LL	.
.	.	.	16aa	.
(8C#X	.	[8a	16ggn	.
.	.	.	16eeJJ)	.
.	8r	.	.	.
.	(8cL	.	.	.
.	8fJ)	.	.	.
.	[8A	.	.	.
=69	=69	=69	=69	=69
8D)	.	(>8aL]	(>16ggLL	.
.	.	.	16ff	.
!	!	!LO:TX:b:Bi:t=Cresc.	!	!
8r	.	8aa)	16aa	.
!	!	!	!LO:TX:b:Bi:t=Cresc.	!
.	.	.	16ggJJ	.
!LO:TX:a:Bi:t=Cresc.	!	!	!	!
4r	.	8aa'	16ffLL	.
.	.	.	16ee	.
.	.	8aa'J	16dd	.
.	.	.	16ccJJ)	.
.	(8AL]	.	.	.
.	8f)	.	.	.
.	(8f'	.	.	.
.	8f'J)	.	.	.
=70	=70	=70	=70	=70
8GGL	.	(>4aa	(>16bnLL	.
.	.	.	16cc	.
!LO:TX:b:Bi:t=Cresc.	!	!	!	!
8G	.	.	16dd	.
.	.	.	16eeJJ	.
8G	.	8ggL)	16ffLL	.
.	.	.	16gg	.
8GJ	.	8ffJ	16aa	.
.	.	.	16bbnJJ)	.
.	(>4f	.	.	.
.	8eL	.	.	.
.	8dJ)	.	.	.
=71	=71	=71	=71	=71
8CL	.	(8ee'	16ccc'LL	.
.	.	.	(16gg	.
(8c	.	8eeL	16eee	.
.	.	.	16cccJJ)	.
8d	.	8ff	(16cccLL	.
.	.	.	16bbn	.
8fJ)	.	8ddJ)	16aa	.
.	.	.	16bbJJ)	.
.	8c	.	.	.
.	4g	.	.	.
.	[8g	.	.	.
=72	=72	=72	=72	=72
8e'L)	.	(8gg'	16ccc'LL	.
.	.	.	(16gg	.
(8c	.	8eeL	16eee	.
.	.	.	16cccJJ)	.
8d	.	8ff	(16cccLL	.
.	.	.	16bbn	.
8fJ	.	8ddJ)	16aa	.
.	.	.	16bbJJ)	.
.	8g]	.	.	.
.	4g	.	.	.
.	[8g	.	.	.
=73	=73	=73	=73	=73
8e'L)	.	(>8ggL	(>16cccLL	.
.	.	.	16eee	.
8c'J	.	8ee	16gg	.
.	.	.	16cccJJ)	.
8r	.	8cc	16aaLL	.
.	.	.	16ccc	.
8F	.	8aJ	16ff	.
.	.	.	16aaJJ)	.
.	(>8gL]	.	.	.
.	8g	.	.	.
.	8a	.	.	.
.	8fJ	.	.	.
=74	=74	=74	=74	=74
8r	.	8gL	(>16eeLL	.
.	.	.	16gg	.
8G	.	8e	16cc	.
.	.	.	16eeJJ)	.
8r	.	8f	(16ddLL	.
.	.	.	16ff	.
8GG	.	8dJ)	16bn	.
.	.	.	16ddJJ)	.
.	8eL	.	.	.
.	8c	.	.	.
.	8d	.	.	.
.	8BnJ)	.	.	.
=75	=75	=75	=75	=75
8r	.	16e-X'LL	8cc	.
.	.	(16g	.	.
(8CL	.	16ee-X	[4.gg	.
.	.	16ccJJ)	.	.
8D	.	(16ccLL	.	.
.	.	16bn	.	.
8GGJ)	.	16a	.	.
.	.	16bJJ)	.	.
.	16c'LL	.	.	.
.	(16G	.	.	.
.	16e-X	.	.	.
.	16cJJ)	.	.	.
.	(16cLL	.	.	.
.	16Bn	.	.	.
.	16A	.	.	.
.	16BJJ)	.	.	.
=76	=76	=76	=76	=76
8E-X'L	.	16cc'LL	8gg]	.
.	.	(16g	.	.
!	!	!	!LO:TX:b:Bi:t=Cresc.	!
(8C	.	16ee-X	[4.gg	.
.	.	(>16ccJJ)	.	.
!	!	!LO:TX:b:Bi:t=Cresc.	!	!
8D	.	16ccLL	.	.
.	.	16bn	.	.
!LO:TX:b:Bi:t=Cresc.	!	!	!	!
8GGJ)	.	16a	.	.
.	.	16bJJ	.	.
.	16c'LL	.	.	.
.	(16G	.	.	.
.	16e-X	.	.	.
.	16cJJ)	.	.	.
.	(<16cLL	.	.	.
!	!LO:TX:b:Bi:t=Cresc.	!	!	!
.	16Bn	.	.	.
.	16A	.	.	.
.	16BJJ)	.	.	.
=77	=77	=77	=77	=77
8E-X'L	.	8ccL)	(>16ggLL]	.
.	.	.	16ccc	.
8C'J	.	16e-XL	16ee-X	.
.	.	16cJJ	16ggJJ)	.
8r	.	16fLL	(16ffLL	.
.	.	16dJJ)	16aa-X	.
8FF	.	8r	16dd	.
.	.	.	16ffJJ)	.
.	8cL	.	.	.
.	(<16GL	.	.	.
.	16E-XJJ	.	.	.
.	16A-XLL	.	.	.
.	16FJJ)	.	.	.
.	8r	.	.	.
=78	=78	=78	=78	=78
8r	.	(>16e-XLL	(>16ee-XLL	.
.	.	16cJJ)	16gg	.
8GG	.	8r	(>16cc	.
.	.	.	16ee-JJ)	.
8r	.	16dLL	16ddLL	.
.	.	16BnJJ	16ff	.
8GG	.	8r	16bn	.
.	.	.	16ddJJ)	.
.	(16GLL	.	.	.
.	16E-XJJ)	.	.	.
.	8r	.	.	.
.	(16FLL	.	.	.
.	16DJJ)	.	.	.
.	8r	.	.	.
=79	=79	=79	=79	=79
4C	.	(24gLL	(>4.cc	.
.	.	24f#X	.	.
.	.	24gJJ	.	.
.	.	24a-XLL	.	.
.	.	24g	.	.
.	.	24f#JJ)	.	.
4r	.	[4g	.	.
.	.	.	8ee-X)	.
.	16E-X'LL	.	.	.
.	16G'	.	.	.
.	16c'	.	.	.
.	16G'JJ	.	.	.
.	16c'LL	.	.	.
.	16G'	.	.	.
.	16c'	.	.	.
.	16G'JJ	.	.	.
=80	=80	=80	=80	=80
4GG	.	(<24gLL]	(>4.ff	.
.	.	24f#X	.	.
.	.	24gJJ	.	.
.	.	24a-XLL	.	.
.	.	24g)	.	.
.	.	24f#JJ	.	.
4r	.	[4g	.	.
.	.	.	8dd)	.
.	16BnLL	.	.	.
.	16G	.	.	.
.	16B	.	.	.
.	16GJJ	.	.	.
.	16BLL	.	.	.
.	16G	.	.	.
.	16B	.	.	.
.	16GJJ	.	.	.
=81	=81	=81	=81	=81
4CC	.	(<24gLL]	(>4.ee-X	.
.	.	24f#X	.	.
.	.	24gJJ	.	.
.	.	24a-XLL	.	.
.	.	24g	.	.
.	.	24f#JJ)	.	.
4r	.	[4g	.	.
.	.	.	8cc)	.
.	16cLL	.	.	.
.	16G	.	.	.
.	16c	.	.	.
.	16GJJ	.	.	.
.	16cLL	.	.	.
.	16G	.	.	.
.	16E-X	.	.	.
.	16GJJ	.	.	.
=82	=82	=82	=82	=82
4GG	.	8gL]	(>8.ddL	.
.	.	8g'	.	.
.	.	.	16bnJk)	.
4GG	.	8g'	(8.btL	.
.	.	8g'J	.	.
.	.	.	32aLL	.
.	.	.	32bJJJ)	.
.	16FLL	.	.	.
.	16G	.	.	.
.	16D	.	.	.
.	16GJJ	.	.	.
.	16FLL	.	.	.
.	16G	.	.	.
.	16D	.	.	.
.	16GJJ	.	.	.
=83	=83	=83	=83	=83
!	!	!LO:TX:b:Bi:t=Cresc.	!	!
16CC'LL	.	(4.cc	(>24ggLL	.
.	.	.	24ff#X	.
!LO:TX:b:Bi:t=Cresc.	!	!	!	!
16GG'	.	.	.	.
.	.	.	24ggJJ	.
!	!	!	!LO:TX:b:Bi:t=Cresc.	!
16C	.	.	24aaLL	.
.	.	.	24gg)	.
16GG'JJ	.	.	.	.
.	.	.	24ff#JJ	.
16C'LL	.	.	[4gg	.
16GG'	.	.	.	.
16C'	.	8ee)	.	.
16GG'JJ	.	.	.	.
!	!LO:TX:b:Bi:t=Cresc.	!	!	!
.	(>4.c	.	.	.
.	8e)	.	.	.
=84	=84	=84	=84	=84
16BBnLL	.	(>4.ff	(>24ggLL]	.
.	.	.	24ff#X	.
16GG	.	.	.	.
.	.	.	24ggJJ	.
16BB	.	.	24aaLL	.
.	.	.	24gg	.
16GGJJ	.	.	.	.
.	.	.	24ff#JJ)	.
16BBLL	.	.	[4gg	.
16GG	.	.	.	.
16BB	.	8dd)	.	.
16GGJJ	.	.	.	.
.	(>4.f	.	.	.
.	8d)	.	.	.
=85	=85	=85	=85	=85
16CLL	.	(4.ee	(>24ggLL]	.
.	.	.	24ff#X	.
16GG	.	.	.	.
.	.	.	24ggJJ	.
16C	.	.	24aaLL	.
.	.	.	24gg	.
16GGJJ	.	.	.	.
.	.	.	24ff#JJ)	.
16CLL	.	.	8gg'L	.
16GG	.	.	.	.
16EE	.	8cc)	8gg'J	.
16GGJJ	.	.	.	.
.	(4.e	.	.	.
.	8c)	.	.	.
=86	=86	=86	=86	=86
16FFLL	.	(>8.ddL	8gg'L	.
16GG	.	.	.	.
16CC	.	.	8gg'	.
16GGJJ	.	(<16bnJk	.	.
16FFLL	.	8.btL)	8gg'	.
16GG	.	.	.	.
16DD	.	.	8gg'J	.
16GGJJ	.	32aLL	.	.
.	.	32bJJJ)	.	.
.	(8.dL	.	.	.
.	16BnJk)	.	.	.
.	8.BtL	.	.	.
.	32ALL	.	.	.
.	32BJJJ)	.	.	.
=87	=87	=87	=87	=87
(<4.CC	.	(>24ccLL	8cc	.
.	.	24bn	.	.
!	!	!LO:TX:b:Bi:t=Cresc.	!	!
.	.	24ccJJ	.	.
.	.	24ddLL	8r	.
.	.	24cc	.	.
.	.	24bJJ)	.	.
.	.	[4cc	8r	.
!LO:TX:b:Bi:t=Cresc.	!	!	!LO:TX:b:Bi:t=Cresc.	!
8AA)	.	.	24ffLL	.
.	.	.	24gg	.
.	.	.	24ffJJ)	.
.	4.C 4.c	.	.	.
!	!LO:TX:b:Bi:t=Cresc.	!	!	!
.	8C 8c	.	.	.
=88	=88	=88	=88	=88
(4.BB-	.	(>24ccLL]	8ee	.
.	.	24bn	.	.
.	.	24ccJJ	.	.
.	.	24ddLL	8r	.
.	.	24cc	.	.
.	.	24bJJ)	.	.
.	.	[4cc	8r	.
8GG)	.	.	24eeLL	.
.	.	.	24dd	.
.	.	.	24eeJJ)	.
.	4.C 4.c	.	.	.
.	8C 8c	.	.	.
=89	=89	=89	=89	=89
(<4.AA	.	(24ccLL]	8ff	.
.	.	24a	.	.
.	.	24b-JJ	.	.
.	.	24ccLL	8r	.
.	.	24dd	.	.
.	.	24eeJJ	.	.
.	.	24ffLL	8r	.
.	.	24ee	.	.
.	.	24ddJJ	.	.
8FF)	.	24ccLL	24aaLL	.
.	.	24b-	24gg	.
.	.	24aJJ)	24aaJJ)	.
.	4.C 4.c	.	.	.
.	8C 8c	.	.	.
=90	=90	=90	=90	=90
(4.GG	.	(>24b-LL	(>4.bb-	.
.	.	24cc	.	.
.	.	24ddJJ	.	.
.	.	24ccLL	.	.
.	.	24b-	.	.
.	.	24aJJ	.	.
.	.	24gLL	.	.
.	.	24f	.	.
.	.	24eJJ	.	.
8CC)	.	24dLL	8ee)	.
.	.	24c	.	.
.	.	24B-JJ)	.	.
.	(<4.D 4.c	.	.	.
.	8C) 8G	.	.	.
=91	=91	=91	=91	=91
8FF'	.	8A	(>24ffLL	.
.	.	.	24ee	.
.	.	.	24ffJJ	.
8r	.	8r	24ggLL	.
.	.	.	24ff	.
.	.	.	24eeJJ	.
4r	.	4r	24ddLL	.
.	.	.	24cc	.
.	.	.	24b-JJ	.
.	.	.	24aLL	.
.	.	.	24g	.
.	.	.	24fJJ)	.
.	8C	.	.	.
.	8r	.	.	.
.	4r	.	.	.
=92	=92	=92	=92	=92
8GG'L	.	8B-'L	8e'L	.
8GG'	.	8B-'	8e'	.
8EE'J	.	8B-'J	8g'J	.
8r	.	8r	8r	.
.	8C'L	.	.	.
.	8C'	.	.	.
.	8C'J	.	.	.
.	8r	.	.	.
=93	=93	=93	=93	=93
2r	.	2r	(>24ggLL	.
.	.	.	24ff#X	.
.	.	.	24ggJJ	.
.	.	.	24aaLL	.
.	.	.	24gg	.
.	.	.	24ffnJJ	.
.	.	.	24eeLL	.
.	.	.	24dd	.
.	.	.	24ccJJ	.
.	.	.	24b-LL	.
.	.	.	24a	.
.	.	.	24gJJ)	.
.	2r	.	.	.
=94	=94	=94	=94	=94
8AA'L	.	8c'L	8f'L	.
8AA'	.	8c'	8f'	.
8FF'J	.	8A'J	8a'J	.
8r	.	8r	8r	.
.	8C'L	.	.	.
.	8C'	.	.	.
.	8C'J	.	.	.
.	8r	.	.	.
=95	=95	=95	=95	=95
8r	.	8r	(>24ccLL	.
.	.	.	24bn	.
.	.	.	24ccJJ	.
(8EL	.	(>8gL	24ddLL	.
.	.	.	24cc	.
.	.	.	(<24b-XJJ	.
8F)	.	8c	8aL)	.
8FF'J	.	8aJ	16ffJk	.
.	.	.	16r	.
.	8r	.	.	.
.	4c	.	.	.
.	8c	.	.	.
=96	=96	=96	=96	=96
8r	.	8r	(>24ccLL	.
.	.	.	24bn	.
.	.	.	24ccJJ	.
(8EL	.	(>8gL	24ddLL	.
.	.	.	24cc	.
.	.	.	24b-XJJ)	.
8F)	.	8c	8aL)	.
8FF'J	.	8aJ)	16aaJk	.
.	.	.	16r	.
.	8r	.	.	.
.	4c	.	.	.
.	8c	.	.	.
=97	=97	=97	=97	=97
8r	.	8r	(>24ccLL	.
.	.	.	24bn	.
.	.	.	24ccJJ	.
(8EL	.	(8gL	24ddLL	.
.	.	.	24cc	.
.	.	.	(<24b-XJJ	.
8F	.	8c	8aL)	.
8F#XJ)	.	8aJ)	16cccJk	.
.	.	.	16r	.
.	8r	.	.	.
.	4c	.	.	.
.	8d)	.	.	.
=98	=98	=98	=98	=98
8G'L	.	(>8gL	(>8ccL	.
8GG'	.	8bn	16eeL	.
.	.	.	16ddJ	.
8C'J	.	8gJ)	8ccJ	.
8r	.	8r	8r	.
.	(>8eL	.	.	.
.	8f	.	.	.
.	8eJ	.	.	.
.	8r	.	.	.
=99	=99	=99	=99	=99
2r	.	2r	2r	.
.	(>24fLL	.	.	.
.	24e	.	.	.
.	24fJJ	.	.	.
.	24gLL	.	.	.
.	24f	.	.	.
.	24eJJ	.	.	.
.	24dLL	.	.	.
.	24c	.	.	.
.	24B-JJ	.	.	.
.	24ALL	.	.	.
.	24G	.	.	.
.	24FJJ)	.	.	.
=100	=100	=100	=100	=100
4r	.	4r	4r	.
8C'L	.	8b-'L	8bb-'L	.
8C'J	.	8b-'J	8bb-'J	.
.	8E'L	.	.	.
.	8E'	.	.	.
.	8G'J	.	.	.
.	8r	.	.	.
=101	=101	=101	=101	=101
(>24B-LL	.	8e'	8ee'	.
24A	.	.	.	.
24B-JJ	.	.	.	.
24cLL	.	8r	8r	.
24B-	.	.	.	.
24AJJ	.	.	.	.
24GLL	.	4r	4r	.
24F	.	.	.	.
24EJJ	.	.	.	.
24DLL	.	.	.	.
24C	.	.	.	.
24BB-JJ)	.	.	.	.
.	2r	.	.	.
=102	=102	=102	=102	=102
8AA'L	.	4r	4r	.
8AA'	.	.	.	.
8C'J	.	8ee-X'L	8eee-X'L	.
8r	.	8ee-'J	8eee-'J	.
.	8A'L	.	.	.
.	8A	.	.	.
.	8c'J	.	.	.
.	8r	.	.	.
.	2r	.	.	.
=103	=103	=103	=103	=103
!LO:TX:b:Bi:t=Cresc.	!	!LO:TX:b:Bi:t=Cresc.	!LO:TX:b:Bi:t=Cresc.	!
8AAL	.	8f#X	8ff#X'	.
8AA	.	8r	8r	.
8CJ	.	8ee-XL	8eee-X'L	.
8r	.	8ee-J	8eee-'J	.
!	!LO:TX:b:Bi:t=Cresc.	!	!	!
.	8AL	.	.	.
.	8A	.	.	.
.	8cJ	.	.	.
.	8r	.	.	.
=104	=104	=104	=104	=104
8FF#XL	.	8dd	8ddd	.
8FF#	.	8r	8r	.
8DJ	.	8ccL	8cccL	.
8r	.	8ccJ	8cccJ	.
.	8F#XL	.	.	.
.	8F#	.	.	.
.	8dJ	.	.	.
.	8r	.	.	.
=105	=105	=105	=105	=105
8GGL	.	8b-	8bb-	.
8GG	.	8r	8r	.
8GJ	.	8b-L	8bb-L	.
8r	.	8b-J	8bb-J	.
.	8GL	.	.	.
.	8G	.	.	.
.	8gJ	.	.	.
.	8r	.	.	.
=106	=106	=106	=106	=106
8C#XL	.	8a'	8aa	.
8C#	.	8r	8r	.
8EJ	.	8gL	8ggL	.
8r	.	8gJ	8ggJ	.
.	8c#XL	.	.	.
.	8c#	.	.	.
.	8eJ	.	.	.
.	8r	.	.	.
=107	=107	=107	=107	=107
8DL	.	8f	8ff	.
8D	.	8r	8r	.
8FJ	.	8dL	8ddL	.
8r	.	8dJ	8ddJ	.
.	8dL	.	.	.
.	8d	.	.	.
.	8fJ	.	.	.
.	8r	.	.	.
=108	=108	=108	=108	=108
8BB-L	.	8f	8ff	.
8BB-	.	8r	8r	.
8DJ	.	8G#XL	8g#XL	.
8r	.	8G#J	8g#J	.
.	8B-L	.	.	.
.	8B-	.	.	.
.	8dJ	.	.	.
.	8r	.	.	.
.	2r	.	.	.
=109	=109	=109	=109	=109
8AA	.	8A	8a	.
[4.A	.	8r	8r	.
.	.	4r	(>24bb-LL	.
.	.	.	24aa	.
.	.	.	24bb-JJ	.
.	.	.	24cccLL	.
.	.	.	24bb-	.
.	.	.	24aaJJ	.
.	8c#X	.	.	.
.	8r	.	.	.
.	4r	.	.	.
=110	=110	=110	=110	=110
8AL]	.	(24b-LL	24ggLL	.
.	.	24a	24ff#X	.
.	.	24b-JJ	24ggJJ	.
8A'	.	24ccLL	24aaLL	.
.	.	24b-	24gg)	.
.	.	24aJJ	24ffnJJ	.
8A'	.	24gLL	8ee'L	.
.	.	24f#X	.	.
.	.	24gJJ	.	.
8A'J	.	24aLL	8dd'J	.
.	.	24g	.	.
.	.	24fnJJ)	.	.
.	4r	.	.	.
.	24b-LL	.	.	.
.	24a	.	.	.
.	24b-JJ	.	.	.
.	24ccLL	.	.	.
.	24b-	.	.	.
.	24aJJ)	.	.	.
=111	=111	=111	=111	=111
8AA'	.	8e'L	8cc#X	.
[4.A	.	8d'	8r	.
.	.	8c#X'J	24bb-LL	.
.	.	.	24aa	.
.	.	.	24bb-JJ	.
.	.	8r	24cccLL	.
.	.	.	24bb-	.
.	.	.	24aaJJ	.
.	8g'L	.	.	.
.	8f'	.	.	.
.	8e'J	.	.	.
.	8r	.	.	.
=112	=112	=112	=112	=112
8AL]	.	(24b-LL	24ggLL	.
.	.	24a	24ff#X	.
.	.	24b-JJ	24ggJJ	.
8A'	.	24ccLL	24aaLL	.
.	.	24b-	24gg)	.
.	.	24aJJ	24ffnJJ	.
8A'	.	24gLL	8ee'L	.
.	.	24f#X	.	.
.	.	24gJJ	.	.
8A'J	.	24aLL	8dd'J	.
.	.	24g	.	.
.	.	24fnJJ)	.	.
.	4r	.	.	.
.	(>24b-LL	.	.	.
.	24a	.	.	.
.	24b-JJ	.	.	.
.	24ccLL	.	.	.
.	24b-)	.	.	.
.	24aJJ	.	.	.
=113	=113	=113	=113	=113
8AA'	.	8e'L	8cc#X	.
[4.A	.	8d'	8r	.
!	!	!	!LO:TX:b:Bi:t=Cresc.	!
.	.	8c#X'J	(>24bb-LL	.
.	.	.	24aa	.
.	.	.	24bb-JJ	.
.	.	8r	24cccLL	.
.	.	.	24bb-	.
.	.	.	24aaJJ	.
.	8g'L	.	.	.
.	8f'	.	.	.
.	8e'J	.	.	.
.	8r	.	.	.
=114	=114	=114	=114	=114
!LO:TX:b:Bi:t=Cresc.	!	!LO:TX:b:Bi:t=Cresc.	!	!
2A_	.	(<24b-LL	24ggLL	.
.	.	24a	24ff#X	.
.	.	24b-JJ	24ggJJ	.
.	.	24ccLL	24aaLL	.
.	.	24b-	(<24gg	.
.	.	24aJJ	24ffnJJ	.
.	.	24gLL	24eeLL	.
.	.	24f#X	24dd#X	.
.	.	24gJJ	24eeJJ	.
.	.	24aLL	24ffLL	.
.	.	24g	24ee	.
.	.	24fnJJ)	24ddnJJ)	.
.	4r	.	.	.
!	!LO:TX:b:Bi:t=Cresc.	!	!	!
.	24b-LL	.	.	.
.	24a	.	.	.
.	24b-JJ	.	.	.
.	24ccLL	.	.	.
.	24b-	.	.	.
.	24aJJ)	.	.	.
=115	=115	=115	=115	=115
4.A]	.	(<24eLL	(>24cc#XLL	.
.	.	24d#X	24b#X	.
.	.	24eJJ	24cc#JJ	.
.	.	24fLL	24ddLL	.
.	.	24e)	24cc#	.
.	.	24dnJJ	24b#JJ)	.
.	.	8c#X'L	8a'L	.
8BB-'	.	8d'J	8a'J	.
.	(>24gLL	.	.	.
.	24f#X	.	.	.
.	24gJJ	.	.	.
.	24aLL	.	.	.
.	24g	.	.	.
.	24fnJJ	.	.	.
.	8e'L)	.	.	.
.	8D'J	.	.	.
=116	=116	=116	=116	=116
8AA'L	.	8c#X'L	8a'L	.
8GG'	.	8c#'	8a'J	.
8FF'	.	8d'	8a'L	.
8EE'J	.	8e'J	16bnL	.
.	.	.	16cc#XJJ	.
.	8E'L	.	.	.
.	8e'	.	.	.
.	8f'	.	.	.
.	8g'J	.	.	.
=117	=117	=117	=117	=117
8DD'	.	8f	[2dd	.
8r	.	8r	.	.
4r	.	4r	.	.
.	(>24aLL	.	.	.
.	24g#X	.	.	.
.	24aJJ	.	.	.
.	24b-LL	.	.	.
.	24a	.	.	.
.	24gnJJ	.	.	.
.	24fLL	.	.	.
.	24e	.	.	.
.	24fJJ	.	.	.
.	24gLL	.	.	.
.	24f)	.	.	.
.	24eJJ	.	.	.
=118	=118	=118	=118	=118
2r	.	2r	(>8ddL]	.
.	.	.	32eeLL	.
.	.	.	32ff	.
.	.	.	32gg	.
.	.	.	32aaJJJ	.
.	.	.	8bb-'L	.
.	.	.	8bb-'J)	.
.	(8d'L	.	.	.
.	8d')	.	.	.
.	8d'	.	.	.
.	8d'J	.	.	.
=119	=119	=119	=119	=119
2r	.	2r	(>4bb-	.
.	.	.	8aaL	p
.	.	.	8gg'J)	.
.	8c#X'L	.	.	.
.	8A'	.	.	.
.	8Bn'	.	.	.
.	8c#'J	.	.	.
=120	=120	=120	=120	=120
2r	.	2r	8ff'L	.
.	.	.	8ee'	.
.	.	.	8dd'	.
.	.	.	8cc'J	.
.	8d'L	.	.	.
.	8e'	.	.	.
.	8f'	.	.	.
.	8f#X'J	.	.	.
=121	=121	=121	=121	=121
[2G	.	(24ddLL	8b-	.
.	.	24cc#X	.	.
.	.	24ddJJ	.	.
.	.	24ee-XLL	8r	.
.	.	24dd	.	.
.	.	24ccnJJ	.	.
.	.	24b-LL	4r	.
.	.	24a	.	.
.	.	24b-JJ	.	.
.	.	24ccLL	.	.
.	.	24b-	.	.
.	.	24aJJ)	.	.
.	8g	.	.	.
.	8r	.	.	.
.	4r	.	.	.
=122	=122	=122	=122	=122
(>8GL]	.	(8g'L	2r	.
32ALL	.	8g')	.	.
32B-	.	.	.	.
32c	.	.	.	.
32dJJJ	.	.	.	.
8e-X'L)	.	8g'	.	.
8e-J	.	8g'J	.	.
.	2r	.	.	.
=123	=123	=123	=123	=123
(4e-X	.	8f#XL	2r	.
.	.	8d'J	.	.
8dL)	.	8e'L	.	.
8cJ	.	8f#'J	.	.
.	2r	.	.	.
=124	=124	=124	=124	=124
8B-'L	.	8g'L	[2gg	.
8A'	.	8a'	.	.
8G'	.	8b-'	.	.
8F'J	.	8bn'J	.	.
.	2r	.	.	.
=125	=125	=125	=125	=125
8E-X'L	.	8cc	(>24ggLL]	.
.	.	.	24ff#X	.
.	.	.	24ggJJ	.
8D'	.	8r	24aa-XLL	.
.	.	.	24gg	.
.	.	.	24ffnJJ	.
8C'	.	4r	24eeLL	.
.	.	.	24dd	.
.	.	.	24eeJJ	.
8BB-'J	.	.	24ffLL	.
.	.	.	24ee	.
.	.	.	24ddJJ)	.
.	[2c	.	.	.
=126	=126	=126	=126	=126
8AA-X'L	.	2r	8cc'L	.
8GG'	.	.	8cc'	.
8FF'	.	.	8cc'	.
8F'J	.	.	8cc'J	.
.	8cL]	.	.	.
.	(32dLL	.	.	.
.	32e-X	.	.	.
.	32f	.	.	.
.	32gJJJ	.	.	.
.	8a-X'L	.	.	.
.	8a-'J)	.	.	.
=127	=127	=127	=127	=127
8GGL	.	2r	8bn'L	.
8GJ	.	.	8g'	.
8r	.	.	8an'	.
8G	.	.	8b'J	.
.	(4a-X	.	.	.
.	8gL)	.	.	.
.	8f'J	.	.	.
=128	=128	=128	=128	=128
8CL	.	2r	8cc'L	.
8cJ	.	.	8dd'	.
8r	.	.	8ee-X'	.
8C	.	.	8een'J	.
.	8e-X'L	.	.	.
.	8d'	.	.	.
.	8c'	.	.	.
.	8B-'J	.	.	.
=129	=129	=129	=129	=129
(24CLL	.	4r	[2ff	.
24BBn	.	.	.	.
24CJJ	.	.	.	.
24D-XLL	.	.	.	.
24C	.	.	.	.
24BB-XJJ	.	.	.	.
24AA-XLL	.	[4f	.	.
24GG	.	.	.	.
24AA-JJ	.	.	.	.
24BB-LL	.	.	.	.
24AA-	.	.	.	.
24GGJJ)	.	.	.	.
.	8A-X	.	.	.
.	8r	.	.	.
.	(>24cLL	.	.	.
.	24Bn	.	.	.
.	24cJJ	.	.	.
.	24dLL	.	.	.
.	24c	.	.	.
.	24B-XJJ)	.	.	.
=130	=130	=130	=130	=130
(8FF'L	.	(>4.f]	(>8ffL]	.
8FF'J	.	.	32ggLL	.
.	.	.	32aa-X	.
.	.	.	32bb-	.
.	.	.	32cccJJJ	.
8FF'L)	.	.	8ddd-XL	.
[8FF'J	.	48a-XLLL	8ddd-'J)	.
.	.	48b-	.	.
.	.	48cc	.	.
.	.	48dd-X	.	.
.	.	48ee-X	.	.
.	.	48ffJJJ	.	.
.	2A-X	.	.	.
=131	=131	=131	=131	=131
!LO:TX:b:Bi:t=Cresc.	!	!LO:TX:b:Bi:t=Cresc.	!LO:TX:b:Bi:t=Cresc.	!
8EE-X	.	4.gg-X)	(>4ddd-X	.
(4E-X	.	.	.	.
.	.	.	8cccL	.
8D-X')	.	8ff	8ddd-'J)	.
!	!LO:TX:b:Bi:t=Cresc.	!	!	!
.	8A-X	.	.	.
.	4A-	.	.	.
.	8A-	.	.	.
.	2r	.	.	.
=132	=132	=132	=132	=132
8C'L	.	8ee-X'L	8eee-X'L	.
8BB-'	.	8dd-X'	8fff'	.
8AA-X'	.	8cc'	8ggg-X'	.
8GG-X'J	.	8cc'J	8eee-'J	.
.	8A-X'L	.	.	.
.	8A-'	.	.	.
.	8A-'	.	.	.
.	8A-'J	.	.	.
=133	=133	=133	=133	=133
8FF	.	8dd-X	8aaa-X'	.
8d-X'L	.	8a-XL	8r	.
8d-'	.	8a-	4r	.
8d-'J	.	8a-J	.	.
.	8A-X	.	.	.
.	8fL	.	.	.
.	8f	.	.	.
.	8fJ	.	.	.
.	2r	.	.	.
=134	=134	=134	=134	=134
8d-X'L	.	8a-XL	2r	.
8d-'J	.	8a-	.	.
8d-'L	.	8a-	.	.
8d-'J	.	8a-J	.	.
.	8fL	.	.	.
.	8f	.	.	.
.	8f	.	.	.
.	8fJ	.	.	.
=135	=135	=135	=135	=135
8d-XL	.	8a-XL	2r	.
8d-	.	8a-	.	.
8d-	.	8a-	.	.
8d-J	.	8a-J	.	.
.	8fL	.	.	.
.	8f	.	.	.
.	8f	.	.	.
.	8fJ	.	.	.
=136	=136	=136	=136	=136
8d-XL	.	8a-XL	4r	.
8d-	.	8a-	.	.
8d-	.	8a-	8r	.
8d-J	.	8a-J	8ff	.
.	8fL	.	.	.
.	8f	.	.	.
.	8f'	.	.	.
.	8f'J	.	.	.
=137	=137	=137	=137	=137
8c	.	(<8a-XL	4.gg-X	.
8r	.	8gJ)	.	.
4r	.	[4a-	.	.
.	.	.	8ee-X	.
.	(>4.e-X	.	.	.
.	8c	.	.	.
=138	=138	=138	=138	=138
2r	.	(8a-L]	4.cc	.
.	.	8gJ)	.	.
.	.	[4a-X	.	.
.	.	.	8ee-X	.
.	4.A-X	.	.	.
.	8g-X	.	.	.
.	2r	.	.	.
=139	=139	=139	=139	=139
2r	.	(<8a-L]	4.dd-X	.
.	.	8gJ)	.	.
.	.	[4a-X	.	.
.	.	.	8ff	.
.	4.f	.	.	.
.	8a-X	.	.	.
=140	=140	=140	=140	=140
2r	.	(8a-L]	4.aa-X	.
.	.	8gJ)	.	.
.	.	[4a-X	.	.
.	.	.	8ff	.
.	4.f	.	.	.
.	8d-X	.	.	.
=141	=141	=141	=141	=141
2r	.	(8a-L]	4.gg-X	.
.	.	8gJ)	.	.
.	.	[4a-X	.	.
.	.	.	8ee-X	.
.	4.e-X	.	.	.
.	8c	.	.	.
=142	=142	=142	=142	=142
2r	.	(8a-L]	4.cc	.
.	.	8gJ)	.	.
.	.	[4a-X	.	.
.	.	.	8ee-X)	.
.	4.A-X	.	.	.
.	8g-X	.	.	.
=143	=143	=143	=143	=143
8r	.	8a-]	8dd-X	.
8D-XL	.	8fL	8dd-L	.
8D-	.	8f	8dd-	.
8D-J	.	8fJ	8dd-J	.
.	8f)	.	.	.
.	8A-XL	.	.	.
.	8A-	.	.	.
.	8A-J	.	.	.
=144	=144	=144	=144	=144
8D-X	.	8f	8dd-X	.
8BB-L	.	8fL	8dd-L	.
8BB-	.	8f	8dd-	.
8BB-J	.	8fJ	8dd-J	.
.	8A-X	.	.	.
.	8B-L	.	.	.
.	8B-	.	.	.
.	8B-J	.	.	.
=145	=145	=145	=145	=145
8BB-	.	8f	8dd-X	.
8G-XL	.	8f#XL	8dd-L	.
8G-	.	8f#	8dd-	.
8G-J	.	8f#J	8dd-J	.
.	8B-	.	.	.
.	8B-L	.	.	.
.	8B-	.	.	.
.	8B-J	.	.	.
=146	=146	=146	=146	=146
8G-X	.	8f#X	8dd-X	.
8E-XL	.	8f#L	8ee-XL	.
8E-	.	8f#	8ee-	.
8E-J	.	8f#J	8ee-J	.
.	8B-	.	.	.
.	8B-L	.	.	.
.	8B-	.	.	.
.	8B-J	.	.	.
=147	=147	=147	=147	=147
8E-X	.	8f#X	8ee-X	.
8r	.	8f#L	8ee-L	.
4r	.	8f#	8ee-	.
.	.	8f#J	8ee-J	.
.	8B-	.	.	.
.	8BnL	.	.	.
.	8B	.	.	.
.	8BJ	.	.	.
=148	=148	=148	=148	=148
2r	.	8f#X	8ee-X	.
.	.	8gL	8eenL	.
.	.	8g	8ee	.
.	.	8gJ	8eeJ	.
.	8Bn	.	.	.
.	8BL	.	.	.
.	8B	.	.	.
.	8BJ	.	.	.
=149	=149	=149	=149	=149
8r	.	8g	8ee	.
8GGL	.	8gL	8ffL	.
8GG	.	8g	8ff	.
8GGJ	.	8gJ	8ffJ	.
.	8Bn	.	.	.
.	8BL 8d	.	.	.
.	8B 8d	.	.	.
.	8BJ 8d	.	.	.
=150	=150	=150	=150	=150
8GG	.	8g	8ff	.
8r	.	8r	8r	.
4r	.	4r	4r	.
.	8Bn 8d	.	.	.
.	8GL	.	.	.
.	8G	.	.	.
.	8GJ	.	.	.
=151	=151	=151	=151	=151
2r	.	2r	2r	.
.	8GL	.	.	.
.	8G	.	.	.
.	8G	.	.	.
.	8GJ	.	.	.
=152	=152	=152	=152	=152
4r	.	4r	4r	.
8r	.	8r	8r	.
8C	.	8e	8ee	.
.	8GL	.	.	.
.	8G	.	.	.
.	8G	.	.	.
.	8GJ	.	.	.
=153	=153	=153	=153	=153
(>4.D	.	4.f	4.ff	.
8BBn	.	8d	8dd)	.
.	(8GL	.	.	.
.	8F#XJ)	.	.	.
.	[4G	.	.	.
=154	=154	=154	=154	=154
4.GG	.	4.Bn	(>4.bn	.
8F	.	8d	8dd	.
.	(8GL]	.	.	.
.	8F#XJ)	.	.	.
.	[4G	.	.	.
=155	=155	=155	=155	=155
4.E	.	4.c	4.cc	.
8G	.	8e)	8ee	.
.	(<8GL]	.	.	.
.	8F#XJ)	.	.	.
.	[4G	.	.	.
=156	=156	=156	=156	=156
4.E	.	4.g	4.gg)	.
8C	.	[8g	[8gg	.
.	8GL]	.	.	.
.	(8F#X	.	.	.
.	8G	.	.	.
.	8eJ)	.	.	.
=157	=157	=157	=157	=157
4.D	.	(8gL]	(>8ggL]	.
.	.	8f#XJ)	8ff#XJ)	.
.	.	[4g	[4gg	.
8BBn	.	.	.	.
.	(4.fn	.	.	.
.	8d	.	.	.
=158	=158	=158	=158	=158
4.GG	.	(8gL]	(>8ggL]	.
.	.	8f#XJ)	8ff#XJ	.
.	.	[4g	[4gg	.
8F	.	.	.	.
.	4.Bn	.	.	.
.	8d)	.	.	.
=159	=159	=159	=159	=159
8E-X)	.	8g]	24ggLL])	.
.	.	.	24ff#X	.
.	.	.	24ggJJ	.
8r	.	8r	24aa-XLL	.
.	.	.	24gg	.
.	.	.	24ffnJJ	.
4r	.	4r	24ee-XLL	.
.	.	.	24dd	.
.	.	.	24ee-JJ	.
.	.	.	24ffLL	.
.	.	.	24ee-)	.
.	.	.	24ddJJ	.
.	[2c	.	.	.
=160	=160	=160	=160	=160
2r	.	2r	8cc'L	.
.	.	.	8cc'	.
.	.	.	8cc'	.
.	.	.	8cc'J	.
.	8cL]	.	.	.
.	(32dLL	.	.	.
.	32e-X	.	.	.
.	32f	.	.	.
.	32gJJJ)	.	.	.
.	8a-X'L	.	.	.
.	8a-'J	.	.	.
=161	=161	=161	=161	=161
2r	.	2r	8bn'L	.
.	.	.	8g'	.
.	.	.	8a'	.
.	.	.	8b'J	.
.	(>4a-X	.	.	.
.	8g'L)	.	.	.
.	8f'J	.	.	.
=162	=162	=162	=162	=162
2r	.	2r	8cc'L	.
.	.	.	8dd'	.
.	.	.	8ee-X'	.
.	.	.	8een'J	.
.	8e-X'L	.	.	.
.	8d'	.	.	.
.	8c'	.	.	.
.	8B-X'J	.	.	.
=163	=163	=163	=163	=163
(>24cLL	.	[2f	8ff	.
24Bn	.	.	.	.
24cJJ	.	.	.	.
24d-XLL	.	.	8r	.
24c	.	.	.	.
24B-XJJ	.	.	.	.
24A-XLL	.	.	4r	.
24G	.	.	.	.
24A-JJ	.	.	.	.
24B-LL	.	.	.	.
24A-	.	.	.	.
24GJJ)	.	.	.	.
.	8A-X	.	.	.
.	8r	.	.	.
.	4r	.	.	.
=164	=164	=164	=164	=164
(>8F'L	.	8fL]	2r	.
8F')	.	(32gLL	.	.
.	.	32a-X	.	.
.	.	32b-	.	.
.	.	32ccJJJ	.	.
8F'	.	8dd-X'L)	.	.
8F'J	.	8dd-'J	.	.
.	2r	.	.	.
=165	=165	=165	=165	=165
8E'L	.	(>4dd-X	2r	.
8C'	.	.	.	.
8D'	.	8ccL)	.	.
8E'J	.	8b-'J	.	.
.	2r	.	.	.
=166	=166	=166	=166	=166
8F'L	.	8a-X'L	(2ff	.
8G'	.	8g'	.	.
8A-X'	.	8f'	.	.
8An'J	.	8e-X'J	.	.
.	2r	.	.	.
=167	=167	=167	=167	=167
8B-	.	8d-X'L	8ffL)	.
8r	.	8dd-X'	32ggLL	.
.	.	.	32aa	.
.	.	.	32bb-	.
.	.	.	32cccJJJ)	.
4r	.	8b-'	8ddd-X'L	.
.	.	8a-X'J	8ddd-'J	.
.	2r	.	.	.
=168	=168	=168	=168	=168
2r	.	8gL	(>4ddd-X	.
.	.	8f	.	.
.	.	8e-X	8cccL)	.
.	.	8d-XJ	8ddd-'J	.
.	2r	.	.	.
=169	=169	=169	=169	=169
2r	.	8cL	(>8eee	.
.	.	8ee-X	32aa-XLLL	.
.	.	.	32bb-	.
.	.	.	32ccc	.
.	.	.	32ddd-XJJJ	.
.	.	8cc	8eeeL	.
.	.	8b-J	8eee'J)	.
.	2r	.	.	.
=170	=170	=170	=170	=170
4r	.	8a-XL	(>4eee-X	.
.	.	8g-X	.	.
8r	.	8f	8ddd-XL)	.
8AA-X	.	8e-XJ	8eee-'J	.
.	4r	.	.	.
.	8r	.	.	.
.	8c	.	.	.
=171	=171	=171	=171	=171
8D-X'L	.	(>8d-X	8fff	.
8d-X'	.	40a-XLLL	8r	.
.	.	40b-	.	.
.	.	40cc	.	.
.	.	40dd-X	.	.
.	.	40ee-XJJJ	.	.
8d-'	.	8ff'L)	4r	.
8c'J	.	8ff'J	.	.
.	8f'L	.	.	.
.	8f'	.	.	.
.	8f'	.	.	.
.	8e-X'J	.	.	.
=172	=172	=172	=172	=172
8B-'L	.	(>4ff	8r	.
8A-X'	.	.	40ffLLL	.
.	.	.	40gg	.
.	.	.	40aa-X	.
.	.	.	40bb-	.
.	.	.	40cccJJJ)	.
8G'	.	8ee'L)	8ddd-X'L	.
8F'J	.	8ff'J	8ddd-'J	.
.	8d-X'L	.	.	.
.	8c'	.	.	.
.	8B-'	.	.	.
.	8A-X'J	.	.	.
=173	=173	=173	=173	=173
8E'L	.	8gg'	8ccc	.
8e'	.	(32ccLLL	8r	.
.	.	32dd	.	.
.	.	32ee	.	.
.	.	32ffJJJ	.	.
8e'	.	8gg'L)	4r	.
8d'J	.	8gg'J	.	.
.	8G'L	.	.	.
.	8g'	.	.	.
.	8g'	.	.	.
.	8f'J	.	.	.
=174	=174	=174	=174	=174
8c'L	.	(>4gg	8r	.
8B-'	.	.	40eeLLL	.
.	.	.	40ff	.
.	.	.	40gg	.
.	.	.	40aa-X	.
.	.	.	40bb-JJJ)	.
8A-X'	.	8ff'L)	8ccc'L	.
8GJ	.	8gg'J	(24cccL	.
.	.	.	24ddd)	.
.	.	.	24eeeJJ	.
.	8en'L	.	.	.
.	8d-X'	.	.	.
.	8c'	.	.	.
.	8B-'J	.	.	.
=175	=175	=175	=175	=175
8FL	.	8aa-X	8fff	.
8A-X'	.	4aa-	4fff	.
8G'	.	.	.	.
8F'J	.	[8aa-	[8fff	.
.	8A-XL	.	.	.
.	8a-X'	.	.	.
.	8g'	.	.	.
.	8f'J	.	.	.
=176	=176	=176	=176	=176
8E-X'L	.	8aa-]	8fff]	.
8D-X'	.	4aa-X~	4fff	.
8C'	.	.	.	.
8BBn'J	.	8aa-'	8fff	.
.	8e-X'L	.	.	.
.	8d-X'	.	.	.
.	8c'	.	.	.
.	8BnJ	.	.	.
=177	=177	=177	=177	=177
8C	.	(>24ggLL	8eee	.
.	.	24ff#X	.	.
.	.	24ggJJ	.	.
8r	.	24aa-XLL	8r	.
.	.	24gg	.	.
.	.	24ffnJJ	.	.
4r	.	24eeLL	4r	.
.	.	24dd#X	.	.
.	.	24eeJJ	.	.
.	.	24ffLL	.	.
.	.	24ee	.	.
.	.	24ddnJJ)	.	.
.	8c	.	.	.
.	8r	.	.	.
.	[4C	.	.	.
=178	=178	=178	=178	=178
2r	.	8cc	2r	.
.	.	8f'L 8bn	.	.
.	.	8f' 8b	.	.
.	.	8f'J 8b	.	.
.	8CL]	.	.	.
.	(32DLL	.	.	.
.	32E	.	.	.
.	32F	.	.	.
.	32GJJJ	.	.	.
.	8A-XL)	.	.	.
.	8A-'J	.	.	.
=179	=179	=179	=179	=179
[2CC	.	8e 8cc	(>24ggLL	.
.	.	.	24ff#X	.
.	.	.	24ggJJ	.
.	.	8r	24aa-XLL	.
.	.	.	24gg	.
.	.	.	24ffnJJ	.
.	.	4r	24eeLL	.
.	.	.	24dd#X	.
.	.	.	24eeJJ	.
.	.	.	24ffLL	.
.	.	.	24ee	.
.	.	.	24ddnJJ)	.
.	8G'L	.	.	.
.	8C'J	.	.	.
.	[4c	.	.	.
=180	=180	=180	=180	=180
8CCL]	.	2r	8cc	.
(<32DDLL	.	.	8bbn'L	.
32EE	.	.	.	.
32FF	.	.	.	.
32GGJJJ)	.	.	.	.
8AA-X'L	.	.	8bb'	.
8AA-'J	.	.	8bb'J	.
.	8c]	.	.	.
.	8cL 8f	.	.	.
.	8c 8f	.	.	.
.	8cJ 8f	.	.	.
=181	=181	=181	=181	=181
8GG'L	.	(>24ggLL	8ccc	.
.	.	24ff#X	.	.
.	.	24ggJJ	.	.
8CC'J	.	24aa-XLL	8r	.
.	.	24gg	.	.
.	.	24ffnJJ	.	.
4r	.	24eeLL	4r	.
.	.	24dd#X	.	.
.	.	24eeJJ	.	.
.	.	24ffLL	.	.
.	.	24ee)	.	.
.	.	24ddnJJ	.	.
.	8c 8e	.	.	.
.	8r	.	.	.
.	[4C	.	.	.
=182	=182	=182	=182	=182
2r	.	8ccL	2r	.
.	.	8f'J 8bn	.	.
.	.	8f'L 8b	.	.
.	.	8f'J 8b	.	.
.	8CL]	.	.	.
.	(<40CLL	.	.	.
.	40D	.	.	.
.	40E	.	.	.
.	40F	.	.	.
.	40GJJJ	.	.	.
.	8A-XL)	.	.	.
.	8A-'J	.	.	.
=183	=183	=183	=183	=183
[2CC	.	8e 8cc	(>24ggLL	.
.	.	.	24ff-X	.
.	.	.	24ggJJ	.
.	.	8r	24aa-XLL	.
.	.	.	24gg	.
.	.	.	24ffnJJ	.
.	.	4r	24eeLL	.
.	.	.	24dd#X	.
.	.	.	24eeJJ	.
.	.	.	24ffLL	.
.	.	.	24ee	.
.	.	.	24ddnJJ)	.
.	8G'L	.	.	.
.	8C'J	.	.	.
.	[4c	.	.	.
=184	=184	=184	=184	=184
(<8CCL]	.	8r	8cc	.
40CCLL	.	8a-XL	8bbnL	.
40DD	.	.	.	.
40EE	.	.	.	.
40FF	.	.	.	.
40GG-XJJJ	.	.	.	.
8AA-X'L	.	8a-	8bb	.
8FF'J)	.	8a-J	8bbJ	.
.	8c]	.	.	.
.	8cL 8f	.	.	.
.	8c 8f	.	.	.
.	8cJ 8f	.	.	.
=185	=185	=185	=185	=185
8CCL	.	8g	8ccc	.
8cJ	.	8gL	8r	.
8cL	.	8g	4r	.
8cJ	.	8gJ	.	.
.	8c 8e	.	.	.
.	8eL	.	.	.
.	8e	.	.	.
.	8eJ	.	.	.
=186	=186	=186	=186	=186
8c'L	.	8gL	2r	.
8c'	.	8g	.	.
8c'	.	8g	.	.
8c'J	.	8gJ	.	.
.	8eL	.	.	.
.	8e	.	.	.
.	8e	.	.	.
.	8eJ	.	.	.
=187	=187	=187	=187	=187
8cL	.	8a-XL	2r	.
8c	.	8a-	.	.
8c	.	8a-	.	.
8cJ	.	8a-J	.	.
.	8fL	.	.	.
.	8f	.	.	.
.	8f	.	.	.
.	8fJ	.	.	.
=188	=188	=188	=188	=188
8c#XL	.	8a-XL	2r	.
8c#	.	8a-	.	.
8c#	.	8a-	.	.
8c#J	.	8a-J	.	.
.	8fL	.	.	.
.	8f	.	.	.
.	8f	.	.	.
.	8fJ	.	.	.
=189	=189	=189	=189	=189
8c#XL	.	8aL	2r	.
8c#	.	8a	.	.
8c#	.	8a	.	.
8c#J	.	8aJ	.	.
.	8f#XL	.	.	.
.	8f#	.	.	.
.	8f#	.	.	.
.	8f#J	.	.	.
=190	=190	=190	=190	=190
8c#XL	.	8aL	2r	.
8c#J	.	8a	.	.
8c#L	.	8a	.	.
8c#J	.	8aJ	.	.
.	8f#XL	.	.	.
.	8f#	.	.	.
.	8f#	.	.	.
.	8f#J	.	.	.
.	2r	.	.	.
=191	=191	=191	=191	=191
8d	.	8a	4r	.
8r	.	8aL	.	.
4r	.	8a	8r	.
.	.	8aJ	8r	.
.	8f#X	.	.	.
.	8r	.	.	.
.	4r	.	.	.
=192	=192	=192	=192	=192
2r	.	8aL	4r	.
.	.	8a	.	.
.	.	8a	8r	.
.	.	8aJ	8ff#X	.
.	4r	.	.	.
.	8r	.	.	.
.	(8d	.	.	.
=193	=193	=193	=193	=193
2r	.	(8aL	4.gg	.
.	.	8g#XJ)	.	.
.	.	[4a	.	.
.	.	.	8ee	.
.	4.e	.	.	.
.	8c#X	.	.	.
=194	=194	=194	=194	=194
2r	.	(8aL]	4.cc#X	.
.	.	8g#XJ)	.	.
.	.	[4a	.	.
.	.	.	8ee)	.
.	4.A	.	.	.
.	8G	.	.	.
=195	=195	=195	=195	=195
2r	.	(8aL]	(>4.dd	.
.	.	8g#XJ)	.	.
.	.	[4a	.	.
.	.	.	8ff#X	.
.	4.F#X	.	.	.
.	8d	.	.	.
=196	=196	=196	=196	=196
4r	.	(<8aL]	4.aa	.
.	.	8g#XJ)	.	.
8r	.	[4a	.	.
(8D	.	.	8ff#X	.
.	4.f#X	.	.	.
.	8d	.	.	.
=197	=197	=197	=197	=197
!LO:TX:b:Bi:t=Cresc.	!	!LO:TX:b:Bi:t=Cresc.	!LO:TX:b:Bi:t=Cresc.	!
4.E	.	(8aL]	4.gg	.
.	.	8g#XJ)	.	.
.	.	[4a	.	.
8C#X	.	.	8ee	.
!	!LO:TX:b:Bi:t=Cresc.	!	!	!
.	4.c#X	.	.	.
.	8e	.	.	.
=198	=198	=198	=198	=198
4.AA	.	(8aL]	4.cc#X	.
.	.	8g#XJ)	.	.
.	.	[4a	.	.
8G	.	.	8ee)	.
.	4.g	.	.	.
.	8c#X)	.	.	.
=199	=199	=199	=199	=199
8F#X)	.	8a]	8dd	.
8DL	.	8f#XL	8ddL	.
8D	.	8f#	8dd	.
8DJ	.	8f#J	8ddJ	.
.	(8d	.	.	.
.	8AL	.	.	.
.	8A	.	.	.
.	8AJ	.	.	.
=200	=200	=200	=200	=200
8D	.	8f#X	8dd	.
8DL	.	8fnL	8ddL	.
8D	.	8f	8dd	.
8DJ	.	8fJ	8ddJ	.
.	8A	.	.	.
.	8AL	.	.	.
.	8A	.	.	.
.	8AJ	.	.	.
=201	=201	=201	=201	=201
8D	.	8f	8dd	.
8BB-L	.	8fL	8ddL	.
8BB-	.	8f	8dd	.
8BB-J	.	8fJ	8ddJ	.
.	8A	.	.	.
.	8B-L	.	.	.
.	8B-	.	.	.
.	8B-J	.	.	.
=202	=202	=202	=202	=202
8BB-	.	8f	8dd	.
8BB-L	.	8fL	8aa-XL	.
8BB-	.	8f	8aa-	.
8BB-J	.	8fJ	8aa-J	.
.	8B-	.	.	.
.	8dL	.	.	.
.	8d	.	.	.
.	8dJ	.	.	.
=203	=203	=203	=203	=203
8BB-	.	8f	8aa-X	.
8BB-L	.	8r	8r	.
8BB-	.	4r	4r	.
[8BB-J	.	.	.	.
.	8d	.	.	.
.	8r	.	.	.
.	4r	.	.	.
=204	=204	=204	=204	=204
8BB-L]	.	4r	4r	.
8BB-	.	.	.	.
8BB-	.	8r	8r	.
8BB-J	.	(>8g	8gg	.
.	4r	.	.	.
.	8r	.	.	.
.	8E-X	.	.	.
=205	=205	=205	=205	=205
(<8BB-L	.	4.a-X	4.aa-X	.
8AAJ)	.	.	.	.
[4BB-	.	.	.	.
.	.	8f	8ff	.
.	4.D	.	.	.
.	8F	.	.	.
=206	=206	=206	=206	=206
(<8BB-L]	.	4.d	4.dd	.
8AAJ	.	.	.	.
[4BB-	.	.	.	.
.	.	8f	8ff	.
.	4.B-	.	.	.
.	8A-X	.	.	.
=207	=207	=207	=207	=207
(<8BB-L]	.	4.e-X	4.ee-X	.
8AAJ)	.	.	.	.
[4BB-	.	.	.	.
.	.	8g	8gg	.
.	4.G	.	.	.
.	8B-	.	.	.
=208	=208	=208	=208	=208
8BB-L])	.	4.b-	4.bb-	.
8AAJ)	.	.	.	.
[4BB-	.	.	.	.
.	.	8g)	8gg)	.
.	4.G	.	.	.
.	8E-X)	.	.	.
=209	=209	=209	=209	=209
8BB-L]	.	[2a-X	[2aa-X	.
(8AA	.	.	.	.
8BB-	.	.	.	.
8CJ)	.	.	.	.
.	[2F	.	.	.
=210	=210	=210	=210	=210
2D-X	.	(4a-]	(>4aa-]	.
.	.	8gL	8ggL	.
.	.	8fJ)	8ffJ)	.
.	(8FL]	.	.	.
.	8Bn)	.	.	.
.	8B'	.	.	.
.	8B'J	.	.	.
=211	=211	=211	=211	=211
(<8CL	.	(4e	(4ee	.
8BBn	.	.	.	.
8C	.	[4b-)	[4bb-)	.
8DJ)	.	.	.	.
.	(4c	.	.	.
.	[4G)	.	.	.
=212	=212	=212	=212	=212
2E-X	.	(<4b-]	(>4bb-]	.
.	.	8aL	8aaL	.
.	.	8gJ)	8ggJ)	.
.	(8GL]	.	.	.
.	8c#X)	.	.	.
.	(8c#'	.	.	.
.	8c#'J)	.	.	.
=213	=213	=213	=213	=213
(8DL	.	(4f#X	4ff#X	.
8C#X	.	.	.	.
8D	.	[4ee-X)	[4eee-X	.
8EJ)	.	.	.	.
.	4d	.	.	.
.	8F#XL	.	.	.
.	8GJ	.	.	.
=214	=214	=214	=214	=214
(2F#X	.	(>4ee	(>4eee-]	.
.	.	8ddL	8dddL	.
.	.	8ccJ)	8cccJ)	.
.	(<8AL	.	.	.
.	8d	.	.	.
.	8A	.	.	.
.	8dJ)	.	.	.
=215	=215	=215	=215	=215
!LO:TX:b:Bi:t=Cresc.	!	!	!	!
(2G	.	(>4.b-	(>4.bb-	.
!	!	!LO:TX:b:Bi:t=Cresc.	!LO:TX:b:Bi:t=Cresc.	!
.	.	8a	8aa	.
!	!LO:TX:b:Bi:t=Cresc.	!	!	!
.	(<8B-L	.	.	.
.	8d	.	.	.
.	8B-	.	.	.
.	8dJ)	.	.	.
=216	=216	=216	=216	=216
2E)	.	8gL	8ggL	.
.	.	8a	8aa	.
.	.	8b-	8bb-	.
.	.	8ccJ)	8cccJ)	.
.	(>8B-L	.	.	.
.	8c	.	.	.
.	8G	.	.	.
.	8cJ)	.	.	.
=217	=217	=217	=217	=217
(>4.F	.	(>4b-	(>4bb-	.
.	.	8aL	8aaL	.
8E)	.	8gJ	8ggJ	.
.	(8AL	.	.	.
.	8c)	.	.	.
.	8c	.	.	.
.	8c'J	.	.	.
=218	=218	=218	=218	=218
!LO:TX:b:Bi:t=Decresc.	!	!LO:TX:b:Bi:t=Decresc.	!LO:TX:b:Bi:t=Decresc.	!
2D	.	8fL	8ffL	.
.	.	8g	8gg	.
.	.	8a	8aa	.
.	.	8fJ)	8bbnJ)	.
!	!LO:TX:b:Bi:t=Decresc.	!	!	!
.	(8cL	.	.	.
.	8F)	.	.	.
.	8F'	.	.	.
.	8F'J	.	.	.
=219	=219	=219	=219	=219
8CC'L	.	(<24gLL	8ccc	.
.	.	24f#X	.	.
.	.	24gJJ	.	.
8C'	.	24aLL	8r	.
.	.	24g	.	.
.	.	24fnJJ	.	.
8EE'	.	24eLL	4r	.
.	.	24d#X	.	.
.	.	24eJJ	.	.
8E'J	.	24fLL	.	.
.	.	24e)	.	.
.	.	24d#JJ	.	.
.	8E	.	.	.
.	4E 4G	.	.	.
.	[8E [8G	.	.	.
=220	=220	=220	=220	=220
8GG'L	.	8c'L	2r	.
8G'	.	8c'	.	.
8C	.	8c'	.	.
8c'J	.	8c'J	.	.
.	8EL] 8G]	.	.	.
.	8E' 8G	.	.	.
.	8E' 8G	.	.	.
.	8E'J 8G	.	.	.
=221	=221	=221	=221	=221
8GG	.	8Bn	(>24ffLL	.
.	.	.	24ee	.
.	.	.	24ffJJ	.
8r	.	8r	24ggLL	.
.	.	.	24ff	.
.	.	.	24eeJJ	.
4r	.	[4G [4f	24ddLL	.
.	.	.	24cc	.
.	.	.	24ddJJ	.
.	.	.	24eeLL	.
.	.	.	24dd)	.
.	.	.	24ccJJ	.
.	8G'L	.	.	.
.	8g'	.	.	.
.	8Bn'	.	.	.
.	8bn'J	.	.	.
=222	=222	=222	=222	=222
2r	.	8GL] 8f]	(>8bn'L	.
.	.	8G'J 8f	8b')	.
.	.	8G'L 8f	8b'	.
.	.	8GJ 8f	8b'J	.
.	8d'L	.	.	.
.	8dd'	.	.	.
.	8G'	.	.	.
.	8g'J	.	.	.
=223	=223	=223	=223	=223
8CCL	.	(<24gLL	4cc	.
.	.	24f#X	.	.
.	.	24gJJ	.	.
8C'	.	24aLL	.	.
.	.	24g	.	.
.	.	24fnJJ	.	.
8EE'	.	24eLL	4r	.
.	.	24d#X	.	.
.	.	24eJJ	.	.
8EJ	.	24f#XLL	.	.
.	.	24e	.	.
.	.	24dnJJ)	.	.
.	[2E 2G	.	.	.
=224	=224	=224	=224	=224
8GG'L	.	8c'L	2r	.
8G'	.	8c'	.	.
8C'	.	8c'	.	.
8c'J	.	8c'J	.	.
.	8EL] 8G	.	.	.
.	8E' 8G	.	.	.
.	8E' 8G	.	.	.
.	8E'J 8G	.	.	.
=225	=225	=225	=225	=225
8BB-'L	.	(>24ggLL	(>24bb-LL	.
.	.	24ff#X	24aa	.
.	.	24ggJJ	24bb-JJ	.
8B-'	.	24aaLL	24cccLL	.
.	.	24gg	24bb-	.
.	.	24ffnJJ	24aaJJ	.
8E'	.	24eeLL	24ggLL	.
.	.	24dd#X	24ff#X	.
.	.	24eeJJ	24ggJJ	.
8e'J	.	24ffLL	24aaLL	.
.	.	24ee	24gg	.
.	.	24ddnJJ)	24ffnJJ)	.
.	8C'L	.	.	.
.	8c'	.	.	.
.	8E'	.	.	.
.	8e'J	.	.	.
=226	=226	=226	=226	=226
4.f-X	.	8cc'L	8ee'L	.
.	.	8cc'	8ee'	.
.	.	8cc'	8ee'	.
8e	.	8cc'J	8ee'J	.
.	8G'L	.	.	.
.	8g'	.	.	.
.	8c'	.	.	.
.	8cc'J	.	.	.
=227	=227	=227	=227	=227
8CC'L	.	(>24bb-LL	(>24dddLL	.
.	.	24aa	24ccc#X	.
.	.	24cccJJ	24dddJJ	.
8C'	.	24cccLL	24eeeLL	.
.	.	24bb-	24ddd	.
.	.	24aaJJ	24cccnJJ	.
8EE'	.	24ggLL	24bb-LL	.
.	.	24ff#X	24aa	.
.	.	24ggJJ	24bb-JJ	.
8E'J	.	24aaLL	24cccLL	.
.	.	24gg	24bb-	.
.	.	24ff#JJ)	24aaJJ)	.
.	8C'L	.	.	.
.	8c'	.	.	.
.	8E'	.	.	.
.	8e'J	.	.	.
=228	=228	=228	=228	=228
8GG'L	.	8gg'L	8bb-'L	.
8G'	.	8gg'	8bb-'	.
8C'	.	8gg'	8bb-'	.
8c'J	.	8gg'J	8bb-'J	.
.	8G'L	.	.	.
.	8g'	.	.	.
.	8c'	.	.	.
.	8cc'J	.	.	.
=229	=229	=229	=229	=229
(4.d-X	.	(>24ggLL	(>24bb-LL	.
.	.	24ff#X	24aa	.
.	.	24ggJJ	24bb-JJ	.
.	.	24aaLL	24cccLL	.
.	.	24gg	24bb-	.
.	.	24ff#JJ)	24aaJJ)	.
.	.	[4gg	[4bb-	.
8c)	.	.	.	.
.	(>4.dd-X	.	.	.
.	8cc)	.	.	.
.	2r	.	.	.
=230	=230	=230	=230	=230
(4.d-X	.	(>24ggLL]	(>24bb-LL]	.
.	.	24ff#X	24aa	.
.	.	24ggJJ	24bb-JJ	.
.	.	24aaLL	24cccLL	.
.	.	24gg	24bb-	.
.	.	24ff#JJ)	24aaJJ)	.
.	.	[4gg	[4bb-	.
8c)	.	.	.	.
.	(4.dd-X	.	.	.
.	8cc)	.	.	.
=231	=231	=231	=231	=231
!LO:TX:b:Bi:t=Cresc.	!	!	!	!
8CL	.	(>24ggLL]	(>24bb-LL]	.
!	!	!LO:TX:b:Bi:t=Cresc.	!LO:TX:b:Bi:t=Cresc.	!
.	.	24ff#X	24aa	.
.	.	24ggJJ	24bb-JJ	.
8c	.	24ff#LL	24aaLL	.
.	.	24gg	24bb-	.
.	.	24ff#JJ	24aaJJ	.
8C	.	24ggLL	24bb-LL	.
.	.	24ff#	24aa	.
.	.	24ggJJ	24bb-JJ	.
8cJ	.	24ff#LL	24aaLL	.
.	.	24gg	24bb-	.
.	.	24ff#JJ)	24aaJJ)	.
.	8r	.	.	.
!	!LO:TX:b:Bi:t=Cresc.	!	!	!
.	8cc	.	.	.
.	8r	.	.	.
.	8cc	.	.	.
=232	=232	=232	=232	=232
8CL	.	(>24ggLL	(>24bb-LL	.
.	.	24ff#X	24aa	.
.	.	24ggJJ	24bb-JJ	.
8c	.	24ff#LL	24aaLL	.
.	.	24gg	24bb-	.
.	.	24ff#JJ	24aaJJ	.
8C	.	24ggLL	24bb-LL	.
.	.	24ff#	24aa	.
.	.	24ggJJ	24bb-JJ	.
8cJ	.	24ff#LL	24aaLL	.
.	.	24gg)	24bb-	.
.	.	24ff#JJ	24aaJJ)	.
.	8r	.	.	.
.	8cc	.	.	.
.	8r	.	.	.
.	8cc	.	.	.
=233	=233	=233	=233	=233
4CC	.	(>24ggLL	(>24bb-LL	.
.	.	24aa	24ccc	.
.	.	24ggJJ	24bb-JJ	.
.	.	24ffLL	24aaLL	.
.	.	24gg	24bb-	.
.	.	24ffJJ	24aaJJ	.
4C	.	24eeLL	24ggLL	.
.	.	24ff	24aa	.
.	.	24eeJJ	24ggJJ	.
.	.	24ddLL	24ffLL	.
.	.	24ee	24gg	.
.	.	24ddJJ)	24ffJJ)	.
.	4r	.	.	.
.	4C	.	.	.
=234	=234	=234	=234	=234
4.c	.	(>24ccLL	(>24eeLL	.
.	.	24dd	24ff	.
.	.	24ccJJ	24eeJJ	.
.	.	24b-LL	24ddLL	.
.	.	24cc	24ee	.
.	.	24b-JJ	24ddJJ	.
.	.	24aLL	24ccLL	.
.	.	24b-	24dd	.
.	.	24aJJ	24ccJJ	.
8C	.	24gLL	24b-LL	.
.	.	24a	24cc	.
.	.	24gJJ)	24b-JJ)	.
.	(4.C 4.c	.	.	.
.	16dLL	.	.	.
.	16eJJ)	.	.	.
=235	=235	=235	=235	=235
8F	.	8f	8a	.
8r	.	8r	8r	.
4r	.	4r	4r	.
.	(24fLL	.	.	.
.	24e	.	.	.
.	24fJJ	.	.	.
.	24gLL	.	.	.
.	24f	.	.	.
.	24eJJ	.	.	.
.	24dLL	.	.	.
.	24c	.	.	.
.	24B-JJ	.	.	.
.	24ALL	.	.	.
.	24G	.	.	.
.	24FJJ)	.	.	.
=236	=236	=236	=236	=236
8GG'L	.	8B-'L	4r	.
8GG'	.	8B-'	.	.
8EE'J	.	8b-'J	8bb-'L	.
8r	.	8r	8bb-'J	.
.	8E'L	.	.	.
.	8E'	.	.	.
.	8C'J 8G	.	.	.
.	8r	.	.	.
=237	=237	=237	=237	=237
2r	.	2r	8ee'	.
.	.	.	8r	.
.	.	.	4r	.
.	(>24gLL	.	.	.
.	24f#X	.	.	.
.	24gJJ	.	.	.
.	24aLL	.	.	.
.	24g	.	.	.
.	24fnJJ	.	.	.
.	24eLL	.	.	.
.	24d	.	.	.
.	24cJJ	.	.	.
.	24B-LL	.	.	.
.	24A	.	.	.
.	24GJJ)	.	.	.
=238	=238	=238	=238	=238
8AA'L	.	8c'L	4r	.
8AA'	.	8c'	.	.
8FF'J	.	8cc'J	8ccc'L	.
8r	.	8r	8ccc'J	.
.	8F'L	.	.	.
.	8F'	.	.	.
.	8A'J	.	.	.
.	8r	.	.	.
=239	=239	=239	=239	=239
8r	.	8r	(>24ccLL	.
.	.	.	24bn	.
.	.	.	24ccJJ	.
(8EL	.	(8gL	24ddLL	.
.	.	.	24cc)	.
.	.	.	24b-XJJ	.
8F)	.	8c	(8aL	.
8FF'J	.	8aJ)	16ffJk)	.
.	.	.	16r	.
.	8r	.	.	.
.	4c	.	.	.
.	8c	.	.	.
=240	=240	=240	=240	=240
8r	.	8r	(>24ccLL	.
.	.	.	24bn	.
.	.	.	24ccJJ	.
(8EL	.	(8gL	24ddLL	.
.	.	.	24cc	.
.	.	.	24b-XJJ)	.
8F)	.	8c	8aL	.
8FF'J	.	8aJ)	16aaJk)	.
.	.	.	16r	.
.	8r	.	.	.
.	4c	.	.	.
.	8c	.	.	.
=241	=241	=241	=241	=241
8r	.	8r	(>24ccLL	.
.	.	.	24bn	.
.	.	.	24ccJJ	.
(8EL	.	(8gL	24ddLL	.
.	.	.	24cc	.
.	.	.	24bJJ)	.
8F	.	8c	(8aL	.
8F#XJ)	.	8ccJ)	16cccJk)	.
.	.	.	16r	.
.	8r	.	.	.
.	4c	.	.	.
.	8d	.	.	.
=242	=242	=242	=242	=242
8G'L	.	(<8gL	(>8ccL	.
8GG'	.	8bn	16eeL	.
.	.	.	16ddJ	.
8C'J	.	8gJ)	8ccJ)	.
8r	.	8r	8r	.
.	(>8eL	.	.	.
.	8f	.	.	.
.	8eJ	.	.	.
.	8r	.	.	.
=243	=243	=243	=243	=243
4r	.	(24aLL	(>24ffLL	.
.	.	24g	24ee	.
.	.	24aJJ	24ffJJ	.
.	.	24b-LL	24ggLL	.
.	.	24a	24ff	.
.	.	24gJJ	24eeJJ	.
4r	.	24fLL	24ddLL	.
.	.	24e	24cc	.
.	.	24dJJ	24b-JJ	.
.	.	24cLL	24aLL	.
.	.	24B-	24g)	.
.	.	24AJJ)	24fJJ	.
.	4r	.	.	.
.	24a-XLL	.	.	.
.	24g	.	.	.
.	24fJJ	.	.	.
.	24eLL	.	.	.
.	24d	.	.	.
.	24cJJ)	.	.	.
.	2r	.	.	.
=244	=244	=244	=244	=244
4r	.	8G'L	8e'L	.
.	.	8G'J	8e'	.
8C'L	.	8B-'	8g'J	.
8C'J	.	8r	8r	.
.	8A#X'L	.	.	.
.	8B-'	.	.	.
.	8e'J	.	.	.
.	8r	.	.	.
=245	=245	=245	=245	=245
8CC	.	(24b-LL	(>24ggLL	.
.	.	24a	24ff#X	.
.	.	24b-JJ	24ggJJ	.
8r	.	24ccLL	24aaLL	.
.	.	24b-	24gg	.
.	.	24aJJ	24ffnJJ	.
4r	.	24gLL	24eeLL	.
.	.	24f	24dd	.
.	.	24eJJ	24ccJJ	.
.	.	24dLL	24b-LL	.
.	.	24c	24a	.
.	.	24B-JJ)	24gJJ)	.
.	4r	.	.	.
.	(24b-LL	.	.	.
.	24a	.	.	.
.	24gJJ	.	.	.
.	24fLL	.	.	.
.	24e	.	.	.
.	24dJJ)	.	.	.
=246	=246	=246	=246	=246
4r	.	8A'L	8f'L	.
.	.	8A'	8f'	.
8FL	.	8c'J	8a'J	.
8FJ	.	8r	8r	.
.	8c'L	.	.	.
.	8c'	.	.	.
.	8f'J	.	.	.
.	8r	.	.	.
=247	=247	=247	=247	=247
8FF'L	.	8r	(>24ccLL	.
.	.	.	24bn	.
.	.	.	24ccJJ	.
(8E	.	(8gL	24ddLL	.
.	.	.	24cc	.
.	.	.	24bJJ)	.
8F)	.	8c	(8aL	.
8FF'J	.	8aJ)	16ffJk)	.
.	.	.	16r	.
.	8r	.	.	.
.	4c	.	.	.
.	8c	.	.	.
=248	=248	=248	=248	=248
8r	.	8r	(>24ccLL	.
.	.	.	24bn	.
.	.	.	24ccJJ	.
(8EL	.	(8gL	24ddLL	.
.	.	.	24cc	.
.	.	.	24bJJ)	.
8F)	.	8c	8aL	.
8FF'J	.	8aJ)	16aaJk)	.
.	.	.	16r	.
.	8r	.	.	.
.	4c	.	.	.
.	8c	.	.	.
=249	=249	=249	=249	=249
!	!	!	!LO:TX:b:Bi:t=Cresc.	!
8r	.	8r	(>24ccLL	.
.	.	.	24bn	.
.	.	.	24ccJJ	.
!LO:TX:b:Bi:t=Cresc.	!	!	!	!
(8EL	.	(8gL	24ddLL	.
.	.	.	24cc	.
.	.	.	24b-XJJ)	.
!	!	!LO:TX:b:Bi:t=Cresc.	!	!
8F)	.	8c)	(8a'L	.
8F#X'J	.	8cc'J	8eee-X'J)	.
.	8r	.	.	.
!	!LO:TX:b:Bi:t=Cresc.	!	!	!
.	4c	.	.	.
.	8A	.	.	.
=250	=250	=250	=250	=250
8G'L	.	8b-'L	8ddd'L	.
8C#X'	.	8b-'	8eeen'J	.
8D'	.	8a'	8fff'L	.
8BBn'J	.	8f'J	8g'J	.
.	8B-'L	.	.	.
.	8F'	.	.	.
.	8G'	.	.	.
.	8d'J	.	.	.
.	2r	.	.	.
=251	=251	=251	=251	=251
4Cn	.	4f	4a	.
4CC	.	4B-	4G 4e	.
.	4c	.	.	.
.	4C	.	.	.
=252	=252	=252	=252	=252
4FF	.	4A	4A 4f	.
4r	.	4r	4r	.
.	4F	.	.	.
.	4r	.	.	.
=253	=253	=253	=253	=253
2r	.	4r	(<16ALL	.
.	.	.	16c	.
.	.	.	16g	.
.	.	.	16fJJ	.
.	.	(16ALL	16cLL	.
.	.	16c	16f	.
.	.	16g	16b-	.
.	.	16fJJ)	16aJJ	.
.	2r	.	.	.
=254	=254	=254	=254	=254
2r	.	4e	4g)	.
.	.	4r	4r	.
.	(<16B-LL	.	.	.
.	16c	.	.	.
.	16B-	.	.	.
.	16cJJ	.	.	.
.	16B-LL	.	.	.
.	16c	.	.	.
.	16G	.	.	.
.	16EJJ)	.	.	.
=255	=255	=255	=255	=255
2r	.	4r	(<16cLL	.
.	.	.	16e	.
.	.	.	16a	.
.	.	.	16gJJ	.
.	.	(16cLL	16eLL	.
.	.	16e	16g	.
.	.	16a	16cc	.
.	.	16gJJ)	16b-JJ)	.
.	4C	.	.	.
.	4r	.	.	.
=256	=256	=256	=256	=256
(16ELL	.	4f	4a	.
16F	.	.	.	.
16E	.	.	.	.
16FJJ	.	.	.	.
16ELL	.	4r	4r	.
16F	.	.	.	.
16C	.	.	.	.
16AAJJ)	.	.	.	.
.	2r	.	.	.
=257	=257	=257	=257	=257
4FF	.	2r	(16cLL	.
.	.	.	16f	.
.	.	.	16b-	.
.	.	.	16aJJ	.
4r	.	.	16fLL	.
.	.	.	16a	.
.	.	.	16dd	.
.	.	.	16ccJJ)	.
.	2r	.	.	.
=258	=258	=258	=258	=258
4r	.	4r	(>16aLL	.
.	.	.	16cc	.
.	.	.	16gg	.
.	.	.	16ffJJ	.
8r	.	8r	16ccLL	.
.	.	.	16ff	.
(8F	.	(8a	16bb-	.
.	.	.	16aaJJ)	.
.	4r	.	.	.
.	8r	.	.	.
.	[8c	.	.	.
.	2r	.	.	.
=259	=259	=259	=259	=259
8EL)	.	8g'L)	(>16ggLL	.
.	.	.	16ff	.
8C'	.	(8e'	16ee	.
.	.	.	16ddJJ	.
8E'	.	8g'	16cc#LL	.
.	.	.	16cc#X	.
8C'J	.	8e'J)	16dd	.
.	.	.	16gJJ)	.
.	8c'L	.	.	.
.	8c'	.	.	.
.	8c'	.	.	.
.	8c'J	.	.	.
=260	=260	=260	=260	=260
8FL	.	(<4g	(>4b-	.
8FF	.	.	.	.
8FJ	.	8f)	8a)	.
8A'	.	8a'	8a'	.
.	4.c	.	.	.
.	8a'	.	.	.
=261	=261	=261	=261	=261
4.AA	.	4.A	(<4.A	.
(24AALL	.	(24ALL	24ALL	.
24BBn	.	24Bn	24Bn	.
24C#XJJ)	.	24c#XJJ)	24cJJ)	.
.	(<4.A	.	.	.
.	24ALL	.	.	.
.	24Bn	.	.	.
.	24c#XJJ)	.	.	.
=262	=262	=262	=262	=262
8D'L	.	8d'L	8d'L	.
8E'	.	8e'	8e'	.
8F'	.	8f'	8f'	.
8G'J	.	8g'J	8g'J	.
.	8d'L	.	.	.
.	8E'	.	.	.
.	8F'	.	.	.
.	8G'J	.	.	.
=263	=263	=263	=263	=263
8A'L	.	8aL	8a'L	.
8Bn'	.	8bn	8bn'	.
8c'	.	8cc'	8cc'	.
8c#XJ	.	8cc#X'J	8cc#X'J	.
.	8A'L	.	.	.
.	8Bn	.	.	.
.	8c	.	.	.
.	8c#X'J	.	.	.
=264	=264	=264	=264	=264
8d'L	.	8ddL	8dd'L	.
8e'J	.	8eeJ	8ee'J	.
(16qqd/LL	.	(16qqdd/LL	(16qqdd/LL	sf
16qqe/JJ)	.	16qqee/JJ)	16qqee/JJ)	.
[4f	.	[4ff	[4ff	.
.	8d'L	.	.	.
.	8e'J	.	.	.
.	(16qqd/LL	.	.	.
.	16qqe/JJ)	.	.	.
.	[4f	.	.	.
=265	=265	=265	=265	=265
(8fL]	.	(8ffL]	(8ffL]	.
8e)	.	8ee)	8ee)	.
(8dM	.	(8ddM	(8ddM	.
8cJ)	.	8ccJ)	8ccJ)	.
.	(>8fL]	.	.	.
.	8e	.	.	.
.	8dM)	.	.	.
.	8cJ)	.	.	.
=266	=266	=266	=266	=266
(>8B-ML	.	(8b-ML	(<8b-ML	.
8A)	.	8a)	8a)	.
8GM	.	(8gM	(8gM	.
8FJ)	.	8fJ)	8fJ)	.
.	(8B-ML	.	.	.
.	8A)	.	.	.
.	(8GM	.	.	.
.	8FJ)	.	.	.
=267	=267	=267	=267	=267
(>8EL	.	(<8eL	(<8eL	.
8F)	.	8f)	8fJ)	.
8E-X'	.	(8e-X'	(8e-X'L	.
8C'J)	.	8c'J)	8c'J)	.
.	(<8EL	.	.	.
.	8F)	.	.	.
.	(8E-X'	.	.	.
.	8C'J)	.	.	.
=268	=268	=268	=268	=268
8BB-	.	8B-	(<16B-LL	.
.	.	.	16d	.
8r	.	8r	16f	.
.	.	.	16e-XJJ	.
4r	.	(16B-LL	16dLL	.
.	.	16d	16f	.
.	.	16f	16dd	.
.	.	16dJJ)	16b-JJ)	.
.	8B-	.	.	.
.	8r	.	.	.
.	4r	.	.	.
=269	=269	=269	=269	=269
(>16ELL	.	4c	4a	.
16F	.	.	.	.
16E	.	.	.	.
16FJJ	.	.	.	.
16ELL	.	4r	4r	.
16F	.	.	.	.
16C)	.	.	.	.
16AAJJ	.	.	.	.
.	2r	.	.	.
=270	=270	=270	=270	=270
4FF	.	4r	2r	.
4r	.	16r	.	.
.	.	(16ALL	.	.
.	.	16d	.	.
.	.	16cJJ)	.	.
.	(<16FLL	.	.	.
.	16A	.	.	.
.	16c	.	.	.
.	16B-JJ	.	.	.
.	16ALL	.	.	.
.	16c	.	.	.
.	16f)	.	.	.
.	16e-XJJ	.	.	.
=271	=271	=271	=271	=271
(>16ALL	.	4B-	2r	.
16B-	.	.	.	.
16A	.	.	.	.
16B-JJ	.	.	.	.
16ALL	.	4r	.	.
16c	.	.	.	.
16F	.	.	.	.
16DJJ)	.	.	.	.
.	4d	.	.	.
.	4r	.	.	.
=272	=272	=272	=272	=272
4BB-	.	(<16GLL	2r	.
.	.	16B-	.	.
.	.	16d	.	.
.	.	16cJJ	.	.
4r	.	16B-LL	.	.
.	.	16d	.	.
.	.	16b-	.	.
.	.	16gJJ)	.	.
.	4r	.	.	.
.	16GLL	.	.	.
.	16B-	.	.	.
.	16d)	.	.	.
.	16B-JJ	.	.	.
=273	=273	=273	=273	=273
2r	.	4f#X	(>16ccc#XLL	.
.	.	.	16ddd	.
.	.	.	16ccc#	.
.	.	.	16dddJJ	.
.	.	4r	16ccc#LL	.
.	.	.	16ddd	.
.	.	.	16aa	.
.	.	.	16ff#XJJ)	.
.	4A	.	.	.
.	4r	.	.	.
=274	=274	=274	=274	=274
2r	.	(<16dLL	4dd	.
.	.	16f#X	.	.
.	.	16a	.	.
.	.	16gJJ	.	.
.	.	16f#LL	4r	.
.	.	16a	.	.
.	.	16dd	.	.
.	.	16ccJJ)	.	.
.	4r	.	.	.
.	(<16DLL	.	.	.
.	16F#X	.	.	.
.	16B-	.	.	.
.	16AJJ)	.	.	.
=275	=275	=275	=275	=275
8GG'L	.	16r	2r	.
.	.	16dLL	.	.
8G'	.	16cc	.	.
.	.	16b-JJ	.	.
8FF'	.	16r	.	.
.	.	16dLL	.	.
8F'J	.	16cc	.	.
.	.	16bnJJ	.	.
.	8GL	.	.	.
.	8dJ	.	.	.
.	8r	.	.	.
.	8d	.	.	.
=276	=276	=276	=276	=276
8EE'L	.	16r	2r	.
.	.	(<16gLL	.	.
8CC'J	.	16dd	.	.
.	.	16ccJJ)	.	.
8CC'L	.	16r	.	.
.	.	(<16eLL	.	.
8C'J	.	16cc	.	.
.	.	16b-JJ)	.	.
.	8r	.	.	.
.	8G	.	.	.
.	8r	.	.	.
.	8g	.	.	.
=277	=277	=277	=277	=277
!LO:TX:b:Bi:t=Cresc.	!	!	!	!
8FF'L	.	16r	4r	.
!	!	!LO:TX:b:Bi:t=Cresc.	!	!
.	.	(16aLL	.	.
8F'	.	16dd	.	.
.	.	16ccJJ)	.	.
!	!	!	!LO:TX:b:Bi:t=Cresc.	!
8EE'	.	16r	[4ccc	.
.	.	(16gLL	.	.
8E'J	.	16dd	.	.
.	.	16ccJJ)	.	.
.	8c	.	.	.
.	8r	.	.	.
!	!LO:TX:b:Bi:t=Cresc.	!	!	!
.	(<4G	.	.	.
=278	=278	=278	=278	=278
8DD'L	.	16r	(>4ccc]	.
.	.	(>16aLL	.	.
8D'	.	16aa	.	.
.	.	16ffJJ)	.	.
8GG'	.	16r	4bbn)	.
.	.	16fLL	.	.
8G'J	.	16ee	.	.
.	.	16ddJJ)	.	.
.	4A	.	.	.
.	4G)	.	.	.
=279	=279	=279	=279	=279
(<8C'L	.	8e 8cc	(>4.ccc	.
8GG	.	8r	.	.
8BBn	.	4r	.	.
8C'J	.	.	32dddLLL	.
.	.	.	32ccc	.
.	.	.	32bbn	.
.	.	.	32aaJJJ)	.
.	(2E [2G	.	.	.
=280	=280	=280	=280	=280
8DL	.	8r	(8gg'L	.
8GG	.	8g'L	8gg')	.
8C#X	.	8g'	8gg'	.
8DJ)	.	8g'J	8gg'J	.
.	2F) 2G_	.	.	.
=281	=281	=281	=281	=281
(<8EL	.	(>4.cc	4gg	.
8GG	.	.	.	.
8D	.	.	4r	.
8EJ	.	32ddLLL	.	.
.	.	32cc	.	.
.	.	32bn)	.	.
.	.	32aJJJ	.	.
.	(<8G]	.	.	.
.	8GL	.	.	.
.	8Bn	.	.	.
.	8cJ	.	.	.
=282	=282	=282	=282	=282
8FL	.	(<8g'L	8r	.
8GG	.	8g'	8gg'L	.
8AA	.	8g')	8gg'	.
8BBnJ)	.	8g'J	8gg'J	.
.	8dL	.	.	.
.	8G	.	.	.
.	8c	.	.	.
.	8dJ)	.	.	.
=283	=283	=283	=283	=283
(<8CL	.	8g	(>16dddLL	.
.	.	.	16ccc	.
8GG	.	8r	16bbn	.
.	.	.	16cccJJ	.
8BBn	.	4r	16dddLL	.
.	.	.	16ccc	.
8CJ	.	.	16bb	.
.	.	.	16aaJJ)	.
.	(>8eL	.	.	.
.	8G	.	.	.
.	8d	.	.	.
.	8eJ	.	.	.
=284	=284	=284	=284	=284
8DL	.	8r	(8gg'L	.
8GG	.	8g'L	8gg')	.
8C	.	8g'	8gg'	.
8DJ)	.	8g'J	8gg'J	.
.	8fL	.	.	.
.	8G	.	.	.
.	8e	.	.	.
.	8fJ	.	.	.
=285	=285	=285	=285	=285
(>8EL	.	16ddLL	4gg	.
.	.	16cc	.	.
!	!	!LO:TX:b:Bi:t=Cresc.	!	!
8C	.	16bn	.	.
.	.	16ccJJ	.	.
!LO:TX:b:Bi:t=Cresc.	!	!	!	!
8E	.	16ddLL	4r	.
.	.	16cc	.	.
8GJ	.	16b-X	.	.
.	.	16aJJ	.	.
.	8g)	.	.	.
!	!LO:TX:b:Bi:t=Cresc.	!	!	!
.	4e	.	.	.
.	[8e	.	.	.
=286	=286	=286	=286	=286
8cL)	.	8b-	8r	.
!	!	!	!LO:TX:b:Bi:t=Cresc.	!
(8CCJ	.	8B-'L	8cc'L	.
8DDL	.	8B-'	8cc'	.
8EEJ	.	8B-'J	8cc'J	.
.	8e]	.	.	.
.	(8EL	.	.	.
.	8F	.	.	.
.	8GJ)	.	.	.
=287	=287	=287	=287	=287
8FFL)	.	4A	(>4.ff	.
(8CC	.	.	.	.
8EE	.	4r	.	.
8FFJ	.	.	32ggLLL	.
.	.	.	32ff	.
.	.	.	32ee	.
.	.	.	32ddJJJ)	.
.	[2C 2A	.	.	.
.	2r	.	.	.
=288	=288	=288	=288	=288
8GGL	.	8r	8cc'L	.
8CC	.	8c'L	8cc'	.
8FF#X	.	(<8c'	8cc'	.
8GGJ)	.	8c'J	8cc'J	.
.	[2C 2B-	.	.	.
=289	=289	=289	=289	=289
(<8AAL	.	4.f	4cc	.
8CC	.	.	.	.
8GG	.	.	4r	.
8AAJ	.	32gLLL	.	.
.	.	32f	.	.
.	.	32e	.	.
.	.	32dJJJ)	.	.
.	(<8C] 8c	.	.	.
.	8CL	.	.	.
.	8E	.	.	.
.	8FJ)	.	.	.
=290	=290	=290	=290	=290
8BB-L	.	(<8c'L	8r	.
8CC	.	8c')	8cc'L	.
8DD	.	8c'	8cc'	.
8EEJ)	.	8c'J	8cc'J	.
.	(<8GL	.	.	.
.	8C	.	.	.
.	8F	.	.	.
.	8GJ)	.	.	.
=291	=291	=291	=291	=291
(<8FFL	.	4c	(>16ggLL	.
.	.	.	16ff	.
8CC	.	.	16ee	.
.	.	.	16ffJJ	.
8EE	.	4r	16ggLL	.
.	.	.	16ff	.
8FFJ	.	.	16ee	.
.	.	.	16ddJJ)	.
.	(<8AL	.	.	.
.	8C	.	.	.
.	8G	.	.	.
.	8AJ	.	.	.
=292	=292	=292	=292	=292
8GGL	.	8r	(8cc'L	.
8CC	.	8c'L	8cc')	.
8FF)	.	8c'	8cc'	.
8GGJ	.	8c'J	8cc'J	.
.	8B-L	.	.	.
.	8C	.	.	.
.	8A	.	.	.
.	8B-J)	.	.	.
=293	=293	=293	=293	=293
!LO:TX:b:Bi:t=Cresc.	!	!LO:TX:b:Bi:t=Cresc.	!	!
(<8AAL	.	(<16gLL	4cc	.
.	.	16f	.	.
8CC	.	16e	.	.
.	.	16fJJ	.	.
8GG	.	16gLL	4r	.
.	.	16f	.	.
8AAJ	.	16e	.	.
.	.	16dJJ)	.	.
!	!LO:TX:b:Bi:t=Cresc.	!	!	!
.	(<8cL	.	.	.
.	8C	.	.	.
.	8E	.	.	.
.	8FJ	.	.	.
=294	=294	=294	=294	=294
8BB-L	.	8c'L	8r	.
!	!	!	!LO:TX:b:Bi:t=Cresc.	!
8CC	.	8b-	8ccc'L	.
8DD)	.	8b-'	8ccc'	.
8EEJ	.	8b-'J	8ccc'J	.
.	8GL	.	.	.
.	8E	.	.	.
.	8F	.	.	.
.	8GJ)	.	.	.
=295	=295	=295	=295	=295
8FF	.	8a	16dddLL	.
.	.	.	16ccc	.
8r	.	8r	16bbn	.
.	.	.	16cccJJ	.
4r	.	8r	16dddLL	.
.	.	.	16ccc	.
.	.	[8cc	16bb-X	.
.	.	.	16ggJJ	.
.	8A	.	.	.
.	8r	.	.	.
.	8r	.	.	.
.	8e	.	.	.
=296	=296	=296	=296	=296
2r	.	(>8ccL]	(>16bb-LL	.
.	.	.	16aa	.
.	.	8ffJ)	16gg#X	.
.	.	.	16aaJJ	.
.	.	8r	16bb-LL	.
.	.	.	16aa	.
.	.	[4a	16ggn	.
.	.	.	16eeJJ)	.
.	8f)	.	.	.
.	8r	.	.	.
.	8r	.	.	.
.	8c#X	.	.	.
=297	=297	=297	=297	=297
2r	.	.	(>16ggLL	.
.	.	.	16ff	.
.	.	(8aL]	16ee	.
.	.	.	16ffJJ	.
.	.	8ddJ)	16ggLL	.
.	.	.	16ff	.
.	.	8r	16ee-X	.
.	.	.	16ccJJ)	.
.	.	[8f	.	.
.	8d)	.	.	.
.	8r	.	.	.
.	8r	.	.	.
.	(8A	.	.	.
=298	=298	=298	=298	=298
2r	.	.	(>16cc#XLL	.
.	.	.	16dd	.
.	.	8f]	16ee-X	.
.	.	.	16eenJJ	.
.	.	8r	16ffLL	.
.	.	.	16ff#X	.
.	.	4r	16gg	.
.	.	.	16aa-XJJ	.
.	8B-)	.	.	.
.	8r	.	.	.
.	4r	.	.	.
=299	=299	=299	=299	=299
8B-	.	.	16aaLL	.
.	.	.	16bb-	.
8r	.	8r	16bbn	.
.	.	.	16cccJJ	.
8B-	.	8dd	16ccc#XLL	.
.	.	.	16ddd	.
8r	.	8r	16bb-X	.
.	.	.	16ggJJ)	.
.	.	8dd	.	.
.	8r	.	.	.
.	8f	.	.	.
.	8r	.	.	.
.	8b-	.	.	.
=300	=300	=300	=300	=300
8c	.	.	16ggLL	.
.	.	.	16ff	.
8r	.	8r	16ff'	.
.	.	.	(>16ff'JJ	.
8C	.	8cc	16ffLL	.
.	.	.	16ee	.
8r	.	8r	16ee')	.
.	.	.	16ee'JJ	.
.	.	8b-	.	.
.	8r	.	.	.
.	8a	.	.	.
.	8r	.	.	.
.	8g	.	.	.
=301	=301	=301	=301	=301
4r	.	.	4r	.
.	.	(16ddLL	.	.
.	.	16cc	.	.
8r	.	16bn	8r	.
.	.	16ccJJ	.	.
(8E	.	16ddLL	[8ccc	.
.	.	16cc	.	.
.	.	16b-X	.	.
.	.	16gJJ)	.	.
.	2r	.	.	.
=302	=302	=302	=302	=302
(8F	.	.	(8cccL]	.
8r	.	(16b-LL	8fffJ)	.
.	.	16a	.	.
8r	.	16g#X	8r	.
.	.	16aJJ	.	.
(8C#X	.	16b-LL	8aa	.
.	.	16a	.	.
.	.	16gn	.	.
.	.	16eJJ)	.	.
.	8r	.	.	.
.	(8cL	.	.	.
.	8fJ)	.	.	.
.	8r	.	.	.
=303	=303	=303	=303	=303
8D)	.	.	(>16gggLL	.
.	.	.	16fff	.
8r	.	4f	16eee	.
.	.	.	16fffJJ	.
8r	.	.	16gggLL	.
.	.	.	16fff	.
(8AA	.	8r	16eee	.
.	.	.	16cccJJ)	.
.	.	[8f	.	.
.	8r	.	.	.
.	8AL	.	.	.
.	8dJ	.	.	.
.	8r	.	.	.
=304	=304	=304	=304	=304
8BB-)	.	.	(>16eee-XLL	.
.	.	.	16ddd	.
8r	.	(8fL]	16ccc#X	.
.	.	.	16dddJJ	.
8r	.	8b-J)	16eee-LL	.
.	.	.	16ddd	.
(8FF#X	.	8r	16cccn)	.
.	.	.	16aaJJ	.
.	.	[8d	.	.
.	8r	.	.	.
.	(8FL	.	.	.
.	8B-)	.	.	.
.	[8DJ	.	.	.
=305	=305	=305	=305	=305
!	!	!	!LO:TX:b:Bi:t=Cresc.	!
8GG)	.	.	(>16cccLL	.
.	.	.	16bb-	.
8r	.	(8dL]	16ddd	.
.	.	.	16cccJJ	.
!	!	!LO:TX:b:Bi:t=Cresc.	!	!
4r	.	8dd)	16bb-LL	.
.	.	.	16aa	.
.	.	8dd'	16gg)	.
.	.	.	16ffJJ	.
.	.	8dd'J	.	.
!	!LO:TX:b:Bi:t=Cresc.	!	!	!
.	(8DL]	.	.	.
.	8B-)	.	.	.
.	(8B-'	.	.	.
.	8B-'J)	.	.	.
=306	=306	=306	=306	=306
8CCL	.	.	(>16eeLL	.
.	.	.	16ff	.
8C	.	(>4dd	16gg	.
.	.	.	16aaJJ	.
!LO:TX:b:Bi:t=Cresc.	!	!	!	!
8C	.	.	16bb-LL	.
.	.	.	16ccc	.
8CJ	.	8ccL	16ddd)	.
.	.	.	16eeeJJ	.
.	.	8b-J)	.	.
.	(<4B-	.	.	.
.	8AL	.	.	.
.	8GJ)	.	.	.
=307	=307	=307	=307	=307
8FF	.	.	16fff'LL	.
.	.	.	(16ccc	.
8r	.	(8a	16aaa	.
.	.	.	16fffJJ)	.
8r	.	[4.cc)	(16fffLL	.
.	.	.	16eee	.
(8c	.	.	16ddd	.
.	.	.	16eeeJJ)	.
.	8F'	.	.	.
.	(>8fL	.	.	.
.	8g	.	.	.
.	8b-J	.	.	.
=308	=308	=308	=308	=308
8f)	.	.	16fff'LL	.
.	.	.	(16ccc	.
8r	.	8cc]	16aaa	.
.	.	.	16fffJJ)	.
8r	.	[4.cc	(16fffLL	.
.	.	.	16eee	.
(8c	.	.	16ddd	.
.	.	.	16eeeJJ)	.
.	8aL)	.	.	.
.	8f	.	.	.
.	8g	.	.	.
.	8b-J	.	.	.
=309	=309	=309	=309	=309
8fL)	.	.	(16fffLL	.
.	.	.	16aaa	.
8fJ	.	(>8ccL]	16ccc	.
.	.	.	16fffJJ)	.
8r	.	8cc	(16dddLL	.
.	.	.	16fff	.
8B-	.	8dd	16bb-	.
.	.	.	16dddJJ)	.
.	.	8b-J	.	.
.	8aL)	.	.	.
.	8a	.	.	.
.	8b-	.	.	.
.	8gJ)	.	.	.
=310	=310	=310	=310	=310
8r	.	.	(>16aaLL	.
.	.	.	16ccc	.
8c	.	8aL	(>16ff	.
.	.	.	16aaJJ	.
8r	.	8f	16ggLL)	.
.	.	.	16bb-	.
8C	.	8g	16ee	.
.	.	.	16ggJJ)	.
.	.	8eJ)	.	.
.	(>8cL	.	.	.
.	8A	.	.	.
.	8B-	.	.	.
.	8GJ)	.	.	.
=311	=311	=311	=311	=311
8r	.	.	8ff	.
(8FL	.	16fLL	[4.ccc	.
.	.	(16cc	.	.
8G	.	16aa-X	.	.
.	.	16ffJJ)	.	.
!	!	!LO:TX:b:Bi:t=Cresc.	!	!
8CJ)	.	16ffLL	.	.
.	.	16ee	.	.
!	!	!	!LO:TX:b:Bi:t=Cresc.	!
.	.	16dd	.	.
.	.	16eeJJ)	.	.
.	(>16A-X'LL	.	.	.
.	16c	.	.	.
.	16a-X	.	.	.
.	16fJJ)	.	.	.
!	!LO:TX:b:Bi:t=Cresc.	!	!	!
.	(16fLL	.	.	.
.	16e	.	.	.
.	16d	.	.	.
.	16eJJ)	.	.	.
=312	=312	=312	=312	=312
8A-X'L	.	.	8ccc]	.
(8F	.	16ff'LL	[4.ccc	.
.	.	(16cc	.	.
8G	.	16aa	.	.
.	.	16ffJJ)	.	.
8CJ)	.	(16ffLL	.	.
.	.	16ee	.	.
.	.	16dd	.	.
.	.	16eeJJ)	.	.
.	(>16f'LL	.	.	.
.	16c	.	.	.
.	16a-X	.	.	.
.	16fJJ	.	.	.
.	(16fLL)	.	.	.
.	16e	.	.	.
.	16d	.	.	.
.	16eJJ)	.	.	.
=313	=313	=313	=313	=313
(8A-XL	.	.	(>16cccLL]	.
.	.	.	16fff	.
8FJ)	.	8ff	16aa-X	.
.	.	.	16cccJJ)	.
8r	.	(16a-XLL	(16bb-LL	.
.	.	16fJJ	16ddd-X	.
8BB-	.	16b-LL	16gg	.
.	.	16gJJ)	16bb-JJ)	.
.	.	8r	.	.
.	8f	.	.	.
.	(<16c-XLL	.	.	.
.	16A-XJJ	.	.	.
.	16d-XLL	.	.	.
.	16B-JJ)	.	.	.
.	8r	.	.	.
=314	=314	=314	=314	=314
8r	.	.	(>16aa-XLL	.
.	.	.	16ccc	.
8C	.	(16a-XLL	(>16ff	.
.	.	16fJJ)	16aa-JJ	.
8r	.	8r	16ggLL)	.
.	.	.	16ccc	.
8CC	.	(16gLL	16ee	.
.	.	16eJJ)	16ggJJ)	.
.	.	8r	.	.
.	(>16cLL	.	.	.
.	16A-XJJ)	.	.	.
.	8r	.	.	.
.	(16B-LL	.	.	.
.	16GJJ)	.	.	.
.	8r	.	.	.
=315	=315	=315	=315	=315
4FF	.	.	(>4.ff	.
.	.	(>24ccLL	.	.
.	.	24bn	.	.
.	.	24ccJJ	.	.
4r	.	24dd-XLL	.	.
.	.	24cc	.	.
.	.	24bJJ)	.	.
.	.	[4cc	8aa-X)	.
.	(16A-XLL	.	.	.
.	16c)	.	.	.
.	16f'	.	.	.
.	16c'JJ	.	.	.
.	16f'LL	.	.	.
.	16c'	.	.	.
.	16f'	.	.	.
.	16c'JJ	.	.	.
=316	=316	=316	=316	=316
4C	.	.	(>4.bb-	.
.	.	(24ccLL]	.	.
.	.	24b-	.	.
.	.	24ccJJ	.	.
4r	.	24dd-XLL	.	.
.	.	24cc	.	.
.	.	24b-JJ)	.	.
.	.	[4cc	8gg)	.
.	16eLL	.	.	.
.	16c	.	.	.
.	16e	.	.	.
.	16cJJ	.	.	.
.	16eLL	.	.	.
.	16c	.	.	.
.	16e	.	.	.
.	16cJJ	.	.	.
=317	=317	=317	=317	=317
4F	.	.	4.aa-X	.
.	.	(24ccLL]	.	.
.	.	24bn	.	.
.	.	24ccJJ	.	.
4r	.	24dd-XLL	.	.
.	.	24cc	.	.
.	.	24bJJ)	.	.
.	.	[4cc	8ff	.
.	16fLL	.	.	.
.	16c	.	.	.
.	16f	.	.	.
.	16cJJ	.	.	.
.	(16f'LL	.	.	.
.	16c')	.	.	.
.	16A-X	.	.	.
.	16cJJ	.	.	.
=318	=318	=318	=318	=318
4C	.	.	(>8.ggL	.
.	.	8ccL]	.	.
.	.	.	16eeJk)	.
4C	.	8cc'	8.eetL	.
.	.	8cc'	.	.
.	.	.	32ddLL	.
.	.	.	32eeJJJ	.
.	.	8cc'J	.	.
.	16B-LL	.	.	.
.	16c	.	.	.
.	16G	.	.	.
.	16cJJ	.	.	.
.	16B-LL	.	.	.
.	16c	.	.	.
.	16G	.	.	.
.	16cJJ	.	.	.
=319	=319	=319	=319	=319
!LO:TX:b:Bi:t=Cresc.	!	!	!LO:TX:b:Bi:t=Cresc.	!
(16FFLL	.	.	(24ffLL	.
.	.	.	24bbn	.
16C)	.	.	.	.
.	.	.	24cccJJ	.
!	!	!LO:TX:b:Bi:t=Cresc.	!	!
16F'	.	(>4.ff	24dddLL	.
.	.	.	24ccc	.
16C'JJ	.	.	.	.
.	.	.	24bbJJ)	.
16F'LL	.	.	[4ccc	.
16C'	.	.	.	.
16F'	.	.	.	.
16C'JJ	.	.	.	.
.	.	8aa)	.	.
!	!LO:TX:b:Bi:t=Cresc.	!	!	!
.	(>4.f	.	.	.
.	8a)	.	.	.
=320	=320	=320	=320	=320
16E'LL	.	.	(>24cccLL]	.
.	.	.	24bbn	.
16C'	.	.	.	.
.	.	.	24cccJJ	.
16E	.	(>4.bb-	24dddLL	.
.	.	.	24ccc)	.
16C'JJ	.	.	.	.
.	.	.	24bbJJ	.
16E'LL	.	.	[4ccc	.
16C'	.	.	.	.
16E'	.	.	.	.
16C'JJ	.	.	.	.
.	.	8gg)	.	.
.	(4.b-	.	.	.
.	8g)	.	.	.
=321	=321	=321	=321	=321
16F'LL	.	.	(24cccLL]	.
.	.	.	24bbn	.
16C'	.	.	.	.
.	.	.	24cccJJ	.
16F'	.	(>4.aa	24dddLL	.
.	.	.	24ccc)	.
16C'JJ	.	.	.	.
.	.	.	24bbJJ	.
16F'LL	.	.	[4ccc	.
16C'	.	.	.	.
16AA'	.	.	.	.
16C'JJ	.	.	.	.
.	.	8ff)	.	.
.	(>4.a	.	.	.
.	8f)	.	.	.
=322	=322	=322	=322	=322
16BB-'LL	.	.	8ccc'L]	.
16C'	.	.	.	.
16GG'	.	(>8.ggL	8ccc')	.
16C'JJ	.	.	.	.
16BB-'LL	.	.	8ccc'	.
16C'	.	16eeJk)	.	.
16GG'	.	(8.eetL	8ccc'J	.
16C'JJ	.	.	.	.
.	.	32ddLL	.	.
.	.	32eeJJJ)	.	.
.	(>8.gL	.	.	.
.	16eJk	.	.	.
.	8.etL	.	.	.
.	32dLL)	.	.	.
.	32eJJJ	.	.	.
=323	=323	=323	=323	=323
(<4.FF	.	.	8ff	.
!	!	!LO:TX:b:Bi:t=Cresc.	!	!
.	.	(16ffLL	8r	.
.	.	16ee	.	.
.	.	16ffJJ	8r	.
.	.	16ggLL	.	.
!LO:TX:b:Bi:t=Cresc.	!	!	!LO:TX:b:Bi:t=Cresc.	!
8D)	.	16ff	24bb-LL	.
.	.	.	24ccc	.
.	.	16eeJJ)	.	.
.	.	.	24bb-JJ)	.
.	.	[4ff	.	.
.	(>4.F~	.	.	.
!	!LO:TX:b:Bi:t=Cresc.	!	!	!
.	8F')	.	.	.
=324	=324	=324	=324	=324
(>4.E-X	.	.	8aa	.
.	.	.	8r	.
.	.	(16ffLL]	8r	.
.	.	16ee	.	.
8C)	.	16ffJJ	24aaLL	.
.	.	.	24gg	.
.	.	16ggLL	.	.
.	.	.	24aaJJ)	.
.	.	16ff	.	.
.	.	16eeJJ)	.	.
.	.	[4ff	.	.
.	[4.F~	.	.	.
.	8F']	.	.	.
=325	=325	=325	=325	=325
(>4.D	.	.	8bb-	.
.	.	.	8r	.
.	.	.	8r	.
8BB-)	.	24ffLL]	24dddLL	.
.	.	(24dd	24ccc	.
.	.	24ee-XJJ	24dddJJ)	.
.	.	24ffLL	.	.
.	.	24gg	.	.
.	.	24aaJJ	.	.
.	.	24bb-LL	.	.
.	.	24aa	.	.
.	.	24ggJJ	.	.
.	.	24ffLL	.	.
.	.	24een	.	.
.	.	24ddJJ)	.	.
.	[4.F~	.	.	.
.	8F']	.	.	.
=326	=326	=326	=326	=326
(4.C	.	.	(>4.eee-X	.
8FF)	.	(24ee-XLL	8aa)	.
.	.	24ff	.	.
.	.	24gg	.	.
.	.	24ff	.	.
.	.	24ee-	.	.
.	.	24ddJJ	.	.
.	.	24ccLL	.	.
.	.	24b-	.	.
.	.	24a	.	.
.	.	24g	.	.
.	.	24f	.	.
.	.	24e-XJJ)	.	.
.	[4.F~	.	.	.
.	8F']	.	.	.
=327	=327	=327	=327	=327
8BB-	.	.	(>24bb-LL	.
.	.	.	24aa	.
.	.	.	24bb-JJ	.
8r	.	.	24cccLL	.
.	.	.	24bb-	.
.	.	.	24aaJJ	.
4r	.	.	24ggLL	.
.	.	.	24ff	.
.	.	.	24ee-XJJ	.
.	.	4d	24ddLL	.
.	.	.	24cc	.
.	.	.	24b-JJ)	.
.	.	8r	.	.
.	.	4r	.	.
.	8F	.	.	.
.	8r	.	.	.
.	4r	.	.	.
=328	=328	=328	=328	=328
8c'L	.	.	8a'L	.
8c'	.	.	8a'	.
8A'J	.	.	8cc'J	.
8r	.	.	8r	.
.	.	8e-X'L	.	.
.	.	8e-'	.	.
.	.	8e-'J	.	.
.	.	8r	.	.
.	8f'L	.	.	.
.	8f'	.	.	.
.	8f'J	.	.	.
.	8r	.	.	.
=329	=329	=329	=329	=329
2r	.	.	(>24cccLL	.
.	.	.	24bbn	.
.	.	.	24cccJJ	.
.	.	.	24dddLL	.
.	.	.	24ccc	.
.	.	.	24bb-XJJ	.
.	.	.	24aaLL	.
.	.	.	24gg	.
.	.	.	24ffJJ	.
.	.	.	24ee-XLL	.
.	.	.	24dd)	.
.	.	.	24ccJJ	.
.	.	2r	.	.
.	2r	.	.	.
=330	=330	=330	=330	=330
8d'L	.	.	8bn'L	.
8d'	.	.	8b'	.
8Bn'J	.	.	8dd'J	.
8r	.	.	8r	.
.	.	8a-XL	.	.
.	.	8a-	.	.
.	.	8a-J	.	.
.	.	8r	.	.
.	8f'L	.	.	.
.	8f'	.	.	.
.	8f'J	.	.	.
.	8r	.	.	.
=331	=331	=331	=331	=331
(>24dLL	.	.	2r	.
24c#X	.	.	.	.
24dJJ	.	.	.	.
24eLL	.	.	.	.
24d	.	.	.	.
24cnJJ	.	.	.	.
24B-LL	.	.	.	.
24A	.	.	.	.
24GJJ	.	.	.	.
24FLL	.	.	.	.
24E	.	.	.	.
24DJJ)	.	.	.	.
.	.	2r	.	.
.	2r	.	.	.
=332	=332	=332	=332	=332
8C#X'L	.	.	2r	.
8C#'	.	.	.	.
8E'J	.	.	.	.
8r	.	.	.	.
.	.	2r	.	.
.	4r	.	.	.
.	8g'L	.	.	.
.	8g'J	.	.	.
=333	=333	=333	=333	=333
2r	.	.	4r	.
.	.	.	8gg'L	p
.	.	.	8gg'J	.
.	.	8cc#XL	.	.
.	.	8cc#'	.	.
.	.	8ee'J	.	.
.	.	8r	.	.
.	8b-'	.	.	.
.	8r	.	.	.
.	4r	.	.	.
=334	=334	=334	=334	=334
8C#XL	.	.	8bb-'L	.
8C#'	.	.	8bb-'	.
8E'J	.	.	8gg'J	.
8r	.	.	8r	.
.	.	8b-'L	.	.
.	.	8b-'	.	.
.	.	8b-'	.	.
.	.	8b-'J	.	.
.	8g'L	.	.	.
.	8g'	.	.	.
.	8g'	.	.	.
.	8g'J	.	.	.
=335	=335	=335	=335	=335
8G'L	.	.	8ee'L	.
8G'	.	.	8ee'	.
8B-'J	.	.	8cc#XJ	.
8r	.	.	8r	.
.	.	8b-'L	.	.
.	.	8b-'	.	.
.	.	8b-'	.	.
.	.	8b-'J	.	.
.	8gL	.	.	.
.	8g	.	.	.
.	8g	.	.	.
.	8gJ	.	.	.
=336	=336	=336	=336	=336
8Cn'L	.	.	8aa'L	.
8C'	.	.	8aa'	.
8E-X'J	.	.	8ff#X'J	.
8r	.	.	8r	.
.	.	8aL	.	.
.	.	8a	.	.
.	.	8a	.	.
.	.	8aJ	.	.
.	8f#XL	.	.	.
.	8f#	.	.	.
.	8f#	.	.	.
.	8f#J	.	.	.
=337	=337	=337	=337	=337
8F#X'L	.	.	8ee-X'L	.
8F#'	.	.	8ee-'	.
8A'J	.	.	8cc'J	.
8r	.	.	8r	.
.	.	8aL	.	.
.	.	8a	.	.
.	.	8a	.	.
.	.	8aJ	.	.
.	8f#XL	.	.	.
.	8f#	.	.	.
.	8f#	.	.	.
.	8f#J	.	.	.
=338	=338	=338	=338	=338
8BBn'L	.	.	8aa-X'L	.
8BB'	.	.	8aa-'	.
8D'J	.	.	8ff'J	.
8r	.	.	8r	.
.	.	8a-XL	.	.
.	.	8a-	.	.
.	.	8a-	.	.
.	.	8a-J	.	.
.	8fL	.	.	.
.	8f	.	.	.
.	8f	.	.	.
.	8fJ	.	.	.
=339	=339	=339	=339	=339
8F'L	.	.	8dd'L	.
8F'	.	.	8dd'	.
8A-X'J	.	.	8bn'J	.
8r	.	.	8r	.
.	.	8a-XL	.	.
.	.	8a-	.	.
.	.	8a-	.	.
.	.	8a-J	.	.
.	8fL	.	.	.
.	8f	.	.	.
.	8f	.	.	.
.	8fJ	.	.	.
=340	=340	=340	=340	=340
8F'L	.	.	8dd'L	.
8F'	.	.	8dd'	.
8A-X'J	.	.	8bn'J	.
8r	.	.	8r	.
.	.	8a-XL	.	.
.	.	8a-	.	.
.	.	8a-	.	.
.	.	8a-J	.	.
.	8fL	.	.	.
.	8f	.	.	.
.	8f	.	.	.
.	8fJ	.	.	.
=341	=341	=341	=341	=341
8F'L	.	.	8dd'L	.
8F'	.	.	8dd'	.
8A-X'J	.	.	8bn'J	.
16r	.	.	8r	.
.	.	8a-XL	.	.
.	.	8a-	.	.
.	.	8a-	.	.
.	.	8a-J	.	.
.	8fL	.	.	.
.	8f	.	.	.
.	8f	.	.	.
.	8fJ	.	.	.
=342	=342	=342	=342	=342
2r	.	.	.	.
.	.	.	8dd-X'L	.
.	.	.	8dd-'	.
.	.	.	8b-X'J	.
.	.	.	8r	.
.	.	8gL	.	.
.	.	8g	.	.
.	.	8g	.	.
.	.	8gJ	.	.
.	8eL	.	.	.
.	8e	.	.	.
.	8e	.	.	.
.	8eJ	.	.	.
=343	=343	=343	=343	=343
2r	.	.	.	.
.	.	.	8dd-X'L	.
.	.	.	8dd-'	.
.	.	.	8b-'J	.
.	.	.	8r	.
.	.	8gL	.	.
.	.	8g	.	.
.	.	8g	.	.
.	.	8gJ	.	.
.	8eL	.	.	.
.	8e	.	.	.
.	8e	.	.	.
.	8eJ	.	.	.
=344	=344	=344	=344	=344
(4B-	.	.	.	.
.	.	.	8dd-XL	pp
.	.	.	8dd-	.
[4d-X)	.	.	.	.
.	.	.	8b-	.
.	.	.	8b-J	.
.	.	8gL	.	.
.	.	8g	.	.
.	.	8g	.	.
.	.	8gJ	.	.
.	8eL	.	.	.
.	8e	.	.	.
.	8e	.	.	.
.	8eJ	.	.	.
=345	=345	=345	=345	=345
8d-L]	.	.	.	.
.	.	.	8b-L	.
(8d-XJ	.	.	.	.
.	.	.	8b-	.
8cL)	.	.	.	.
.	.	.	8ee	.
8C'J	.	.	.	.
.	.	.	8eeJ	.
.	.	8gL	.	.
.	.	8g	.	.
.	.	8B-	.	.
.	.	8gJ	.	.
.	8eL	.	.	.
.	8e	.	.	.
.	8g	.	.	.
.	8cJ	.	.	.
=346	=346	=346	=346	=346
(2An	.	.	.	.
.	.	.	8ff	p
.	.	.	8r	.
.	.	.	4r	.
.	.	8c	.	.
.	.	8r	.	.
.	.	4r	.	.
.	(24fLL	.	.	.
.	24e	.	.	.
.	24fJJ	.	.	.
.	24gLL	.	.	.
.	24f	.	.	.
.	24eJJ	.	.	.
.	24dLL	.	.	.
.	24c	.	.	.
.	24B-JJ	.	.	.
.	24ALL	.	.	.
.	24G	.	.	.
.	24FJJ)	.	.	.
=347	=347	=347	=347	=347
4.B-)	.	.	.	.
.	.	.	2r	.
8G'	.	.	.	.
.	.	2r	.	.
.	8E'L	.	.	.
.	8E'	.	.	.
.	8G'J	.	.	.
.	8r	.	.	.
=348	=348	=348	=348	=348
8E'L	.	.	.	.
.	.	.	2r	.
8C'J	.	.	.	.
[4c	.	.	.	.
.	.	2r	.	.
.	24gLL	.	.	.
.	24f#X	.	.	.
.	24g	.	.	.
.	24a	.	.	.
.	24g	.	.	.
.	24fnJJ	.	.	.
.	24eLL	.	.	.
.	24d	.	.	.
.	24c	.	.	.
.	24B-	.	.	.
.	24A	.	.	.
.	24GJJ	.	.	.
=349	=349	=349	=349	=349
8c'L]	.	.	.	.
.	.	.	2r	.
8A'	.	.	.	.
8c'	.	.	.	.
8A'J	.	.	.	.
.	.	2r	.	.
.	8F'L	.	.	.
.	8F'	.	.	.
.	8A'J	.	.	.
.	8r	.	.	.
=350	=350	=350	=350	=350
(>4.F~	.	.	.	.
.	.	.	(>24ffLL	.
.	.	.	24ee	.
.	.	.	24ffJJ	.
.	.	.	24ggLL	.
.	.	.	24ff	.
.	.	.	24eeJJ	.
.	.	.	24ddLL	.
.	.	.	24cc	.
8C')	.	.	.	.
.	.	.	24b-JJ	.
.	.	.	24aLL	.
.	.	.	24g	.
.	.	.	24fJJ)	.
.	.	2r	.	.
.	(>2a	.	.	.
=351	=351	=351	=351	=351
(>4.G~	.	.	.	.
.	.	.	8e'L	.
.	.	.	8e'	.
.	.	.	8g'J	.
8C')	.	.	.	.
.	.	.	8r	.
.	.	2r	.	.
.	4.b-)	.	.	.
.	8g'	.	.	.
=352	=352	=352	=352	=352
(4.B-~	.	.	.	.
.	.	.	(>24ggLL	.
.	.	.	24ff#X	.
.	.	.	24ggJJ	.
.	.	.	24aaLL	.
.	.	.	24gg	.
.	.	.	24ffnJJ	.
.	.	.	24eeLL	.
.	.	.	24dd	.
8C)	.	.	.	.
.	.	.	24ccJJ	.
.	.	.	24b-LL	.
.	.	.	24a	.
.	.	.	24gJJ)	.
.	.	2r	.	.
.	8e'L	.	.	.
.	8c'J	.	.	.
.	[4cc	.	.	.
=353	=353	=353	=353	=353
8A	.	.	.	.
.	.	.	8f'L	.
8r	.	.	.	.
.	.	.	8f'	.
4r	.	.	.	.
.	.	.	8a'J	.
.	.	.	8r	.
.	.	2r	.	.
.	8cc'L]	.	.	.
.	(8a'	.	.	.
.	8cc'	.	.	.
.	8a'J)	.	.	.
=354	=354	=354	=354	=354
!LO:TX:b:Bi:t=Cresc.	!	!	!	!
(24FLL	.	.	.	.
24E	.	.	.	.
!	!	!	!LO:TX:b:Bi:t=Cresc.	!
.	.	.	(>2aa	.
24FJJ	.	.	.	.
24GLL	.	.	.	.
24F	.	.	.	.
24EJJ	.	.	.	.
24DLL	.	.	.	.
24C	.	.	.	.
24BB-JJ	.	.	.	.
24AALL	.	.	.	.
24GG	.	.	.	.
24FFJJ)	.	.	.	.
!	!	!LO:TX:b:Bi:t=Cresc.	!	!
.	.	2a	.	.
!	!LO:TX:b:Bi:t=Cresc.	!	!	!
.	8f	.	.	.
.	8CL 8c	.	.	.
.	8C 8c	.	.	.
.	8CJ 8c	.	.	.
=355	=355	=355	=355	=355
8EE'L	.	.	.	.
.	.	.	4.bb-)	.
8EE'	.	.	.	.
8GG'J	.	.	.	.
8r	.	.	.	.
.	.	.	8gg'	.
.	.	4.b-	.	.
.	.	8g	.	.
.	8CL 8c	.	.	.
.	8C 8c	.	.	.
.	8C 8c	.	.	.
.	8CJ 8c	.	.	.
.	2r	.	.	.
=356	=356	=356	=356	=356
(24B-LL	.	.	.	.
24A	.	.	.	.
.	.	.	8ee'L	.
24B-JJ	.	.	.	.
24cLL	.	.	.	.
24B-	.	.	.	.
.	.	.	8cc'J	.
24AJJ	.	.	.	.
24GLL	.	.	.	.
24F	.	.	.	.
.	.	.	[4ccc	.
24EJJ	.	.	.	.
24DLL	.	.	.	.
24C	.	.	.	.
24BB-JJ)	.	.	.	.
.	.	8e'L	.	.
.	.	8c'J	.	.
.	.	[4cc	.	.
.	8CL 8c	.	.	.
.	8C 8c	.	.	.
.	8C 8c	.	.	.
.	8CJ 8c	.	.	.
.	2r	.	.	.
=357	=357	=357	=357	=357
(<8AA'L	.	.	.	.
.	.	.	8ccc'L]	.
8FF')	.	.	.	.
.	.	.	8aa'	.
8AA'	.	.	.	.
.	.	.	8ccc'	.
8C'J	.	.	.	.
.	.	.	8aa'J	.
.	.	8ccL]	.	.
.	.	8a'	.	.
.	.	8cc'	.	.
.	.	8a'J	.	.
.	8C 8c	.	.	.
.	8F'L	.	.	.
.	8A'	.	.	.
.	8c'J	.	.	.
=358	=358	=358	=358	=358
8FL	.	.	.	.
.	.	.	(>24eee-XLL	f
.	.	.	24ddd	.
8FJ	.	.	.	.
.	.	.	24eee-JJ	.
.	.	.	24fffLL	.
.	.	.	24eee-	.
8r	.	.	.	.
.	.	.	24dddJJ	.
.	.	.	24cccLL	.
.	.	.	24bb-	.
8FF	.	.	.	.
.	.	.	24aaJJ	.
.	.	.	24ggLL	.
.	.	.	24ff	.
.	.	.	24ee-XJJ)	.
.	.	2e-X 2a	.	.
.	2c	.	.	.
=359	=359	=359	=359	=359
8BB-L	.	.	.	.
.	.	.	8dd'L	.
8BB-J	.	.	.	.
.	.	.	8dd'	.
8r	.	.	.	.
.	.	.	8ddd'J	.
8B-	.	.	.	.
.	.	.	8r	.
.	.	2d 2b-	.	.
.	2B-	.	.	.
=360	=360	=360	=360	=360
8CL	.	.	.	.
.	.	.	8ee'L	.
8CJ	.	.	.	.
.	.	.	8ee'	.
8r	.	.	.	.
.	.	.	8eee'J	.
8CC	.	.	.	.
.	.	.	8r	.
.	.	(24bb-LL	.	.
.	.	24aa	.	.
.	.	24bb-JJ	.	.
.	.	24cccLL	.	.
.	.	24bb-	.	.
.	.	24aaJJ	.	.
.	.	24ggLL	.	.
.	.	24ff	.	.
.	.	24eeJJ	.	.
.	.	24ddLL	.	.
.	.	24cc	.	.
.	.	24b-JJ)	.	.
.	(>24gLL	.	.	.
.	24f#X	.	.	.
.	24gJJ	.	.	.
.	24aLL	.	.	.
.	24g	.	.	.
.	24fnJJ	.	.	.
.	24eLL	.	.	.
.	24d	.	.	.
.	24cJJ	.	.	.
.	24B-LL	.	.	.
.	24A	.	.	.
.	24GJJ)	.	.	.
=361	=361	=361	=361	=361
8FF'L	.	.	.	.
.	.	.	8ff'L	.
8F'	.	.	.	.
.	.	.	8ff'	.
8C'	.	.	.	.
.	.	.	8fff'J	.
8AA'J	.	.	.	.
.	.	.	8r	.
.	.	8a'L	.	.
.	.	8f'	.	.
.	.	8a'	.	.
.	.	8cc'J	.	.
.	8F'	.	.	.
.	8F'L	.	.	.
.	8A'	.	.	.
.	8c'J	.	.	.
=362	=362	=362	=362	=362
8FFL	.	.	.	.
.	.	.	2aa	.
8FFJ	.	.	.	.
8r	.	.	.	.
8F	.	.	.	.
.	.	(>24ee-XLL	.	.
.	.	24dd	.	.
.	.	24ee-JJ	.	.
.	.	24ffLL	.	.
.	.	24ee-	.	.
.	.	24ddJJ	.	.
.	.	24ccLL	.	.
.	.	24b-	.	.
.	.	24aJJ	.	.
.	.	24gLL	.	.
.	.	24f	.	.
.	.	24e-XJJ)	.	.
.	(>24e-XLL	.	.	.
.	24d	.	.	.
.	24e-JJ	.	.	.
.	24fLL	.	.	.
.	24e-	.	.	.
.	24dJJ	.	.	.
.	24cLL	.	.	.
.	24B-	.	.	.
.	24AJJ	.	.	.
.	24GLL	.	.	.
.	24F)	.	.	.
.	24E-XJJ	.	.	.
=363	=363	=363	=363	=363
8BB-L	.	.	.	.
.	.	.	2bb-	.
8BB-J	.	.	.	.
8r	.	.	.	.
8B-	.	.	.	.
.	.	8d'L	.	.
.	.	8d'	.	.
.	.	8dd'J	.	.
.	.	8r	.	.
.	8D'L	.	.	.
.	8D'	.	.	.
.	8d'J	.	.	.
.	8r	.	.	.
=364	=364	=364	=364	=364
8CCL	.	.	.	.
.	.	.	2ggT	.
8CCJ	.	.	.	.
8r	.	.	.	.
8C'	.	.	.	.
.	.	8e'L	.	.
.	.	8e'	.	.
.	.	8b-'	.	.
.	.	8b-'J	.	.
.	8B-'L	.	.	.
.	8B-'	.	.	.
.	8e'	.	.	.
.	8e'J	.	.	.
=365	=365	=365	=365	=365
8FFL	.	.	.	.
.	.	.	8ff	.
8FJ	.	.	.	.
.	.	.	8r	.
8r	.	.	.	.
.	.	.	24ccLL	p
.	.	.	24bn	.
(8E	.	.	.	.
.	.	.	24ccJJ	.
.	.	.	24ddLL	.
.	.	.	24cc	.
.	.	.	24b-XJJ)	.
.	.	8a	.	.
.	.	8r	.	.
.	.	8r	.	.
.	.	8g	.	.
.	8f	.	.	.
.	8r	.	.	.
.	8r	.	.	.
.	[8c	.	.	.
=366	=366	=366	=366	=366
(8F'L	.	.	.	.
.	.	.	(>8aL	.
8FF'J	.	.	.	.
.	.	.	16ggJk)	.
8r	.	.	16r	.
.	.	.	24ccLL	.
.	.	.	24bn	.
(8E	.	.	.	.
.	.	.	24ccJJ	.
.	.	.	24ddLL	.
.	.	.	24cc	.
.	.	.	24b-XJJ)	.
.	.	8cL	.	.
.	.	8aJ	.	.
.	.	8r	.	.
.	.	8g	.	.
.	8cL]	.	.	.
.	8c'	.	.	.
.	8r	.	.	.
.	[8cJ	.	.	.
.	2r	.	.	.
=367	=367	=367	=367	=367
8F'L)	.	.	.	.
.	.	.	(>8aL	.
8FF'J	.	.	.	.
.	.	.	16aaJk)	.
8r	.	.	16r	.
.	.	.	24ccLL	.
.	.	.	24bn	.
(8E	.	.	.	.
.	.	.	24ccJJ	.
.	.	.	24ddLL	.
.	.	.	24cc	.
.	.	.	24b-XJJ)	.
.	.	8cL	.	.
.	.	8ccJ	.	.
.	.	8r	.	.
.	.	8g	.	.
.	8cL	.	.	.
.	8f'J	.	.	.
.	8r	.	.	.
.	8c	.	.	.
=368	=368	=368	=368	=368
8F)	.	.	.	.
.	.	.	(>8aL	.
8FFL	.	.	.	.
.	.	.	16ffJk	.
8F'	.	.	16r	.
!	!	!	!LO:TX:b:Bi:t=Cresc.	!
.	.	.	8b-L	.
8E'J	.	.	.	.
.	.	.	16ggJk)	.
.	.	.	16r	.
!	!	!LO:TX:b:Bi:t=Cresc.	!	!
.	.	(16cLL	.	.
.	.	16A)	.	.
.	.	16c'	.	.
.	.	16c'JJ	.	.
.	.	16c'LL	.	.
.	.	16B-'	.	.
.	.	16c'	.	.
.	.	16c'JJ	.	.
!	!LO:TX:b:Bi:t=Cresc.	!	!	!
.	(16ALL	.	.	.
.	16F)	.	.	.
.	16A'	.	.	.
.	16A'JJ	.	.	.
.	(16B-LL	.	.	.
.	16G)	.	.	.
.	16B-'	.	.	.
.	16B-'JJ	.	.	.
=369	=369	=369	=369	=369
!LO:TX:b:Bi:t=Cresc.	!	!	!	!
8F'L	.	.	.	.
.	.	.	8ccL	.
8E-X'	.	.	.	.
.	.	.	16aaJk	.
8D'	.	.	16r	.
.	.	.	8ddL	.
8BB-'J	.	.	.	.
.	.	.	16bb-Jk)	.
.	.	.	16r	.
.	.	(16cLL	.	.
.	.	16A)	.	.
.	.	16f	.	.
.	.	16fJJ	.	.
.	.	(16fLL	.	.
.	.	16d)	.	.
.	.	16f'	.	.
.	.	16f'JJ	.	.
.	(16ALL	.	.	.
.	16F)	.	.	.
.	16c'	.	.	.
.	16c'JJ	.	.	.
.	(16dLL	.	.	.
.	16B-)	.	.	.
.	16d'	.	.	.
.	16d'JJ	.	.	.
=370	=370	=370	=370	=370
8AAL	.	.	.	.
.	.	.	(>8ffL	.
8FF	.	.	.	.
.	.	.	16cccJk)	.
8BB-	.	.	16r	.
.	.	.	8ffL	.
8AAJ	.	.	.	.
.	.	.	16dddJk)	.
.	.	.	16r	.
.	.	(16fLL	.	.
.	.	16e-X)	.	.
.	.	16f'	.	.
.	.	16f'JJ	.	.
.	.	(16fLL	.	.
.	.	16d)	.	.
.	.	16f'	.	.
.	.	16f'JJ	.	.
.	(16e-XLL	.	.	.
.	16c)	.	.	.
.	16e-'	.	.	.
.	16e-'JJ	.	.	.
.	(16dLL	.	.	.
.	16B-)	.	.	.
.	16d'	.	.	.
.	16d'JJ	.	.	.
.	2r	.	.	.
=371	=371	=371	=371	=371
8GGL	.	.	.	.
.	.	.	(>8ggL	.
8C	.	.	.	.
.	.	.	16eeeJk)	.
8AA	.	.	16r	.
.	.	.	(>8aaL	.
8FFJ	.	.	.	.
.	.	.	16gggJk)	.
.	.	.	16r	.
.	.	(16gLL	.	.
.	.	16e)	.	.
.	.	16g'	.	.
.	.	16g'JJ	.	.
.	.	16aLL	.	.
.	.	16f	.	.
.	.	16a'	.	.
.	.	16a'JJ	.	.
.	(16eLL	.	.	.
.	16B-)	.	.	.
.	16e'	.	.	.
.	16e'JJ	.	.	.
.	(16fLL	.	.	.
.	16c)	.	.	.
.	16f'	.	.	.
.	16f'JJ	.	.	.
=372	=372	=372	=372	=372
8BB-L	.	.	.	.
.	.	.	8ggL	.
8AA	.	.	.	.
.	.	.	16fffJk	.
8BB-	.	.	16r	.
.	.	.	8ggL	.
8BBnJ	.	.	.	.
.	.	.	16fffJk)	.
.	.	.	16r	.
.	.	(>24aLL	.	.
.	.	24g	.	.
.	.	24aJJ	.	.
.	.	24b-LL	.	.
.	.	24a	.	.
.	.	24gJJ	.	.
.	.	24fLL	.	.
.	.	24e	.	.
.	.	24dJJ	.	.
.	.	24cLL	.	.
.	.	24B-	.	.
.	.	24AJJ)	.	.
.	(16fLL	.	.	.
.	16d)	.	.	.
.	16f'	.	.	.
.	16f'JJ	.	.	.
.	(16fLL	.	.	.
.	16d)	.	.	.
.	16f'	.	.	.
.	16f'JJ	.	.	.
.	2r	.	.	.
=373	=373	=373	=373	=373
8CL	.	.	.	.
.	.	.	8aaL	.
8BBn	.	.	.	.
.	.	.	16fffJk	.
8C	.	.	16r	.
.	.	.	8ggL	.
8CCJ	.	.	.	.
.	.	.	16eeeJk)	.
.	.	.	16r	.
.	.	(16aLL	.	.
.	.	16f)	.	.
.	.	16a'	.	.
.	.	16a'JJ	.	.
.	.	(16b-LL	.	.
.	.	16g)	.	.
.	.	16b-'	.	.
.	.	16b-'JJ	.	.
.	(16f'LL	.	.	.
.	16c)	.	.	.
.	16f'	.	.	.
.	16f'JJ	.	.	.
.	(16gLL	.	.	.
.	16c)	.	.	.
.	16g'	.	.	.
.	16g'JJ	.	.	.
=374	=374	=374	=374	=374
8FFL	.	.	.	.
.	.	.	(>8aaL	.
8AA	.	.	.	.
.	.	.	16fffJk)	.
8C	.	.	16r	.
.	.	.	(8bb-L	.
8CCJ	.	.	.	.
.	.	.	16gggJk)	.
.	.	.	16r	.
.	.	24aLL	.	.
.	.	(24aa	.	.
.	.	24ggJJ	.	.
.	.	24ffLL	.	.
.	.	24ee	.	.
.	.	24ddJJ	.	.
.	.	24ccLL	.	.
.	.	24b-	.	.
.	.	24aJJ	.	.
.	.	24gLL	.	.
.	.	24f	.	.
.	.	24eJJ)	.	.
.	8f	.	.	.
.	8r	.	.	.
.	4r	.	.	.
=375	=375	=375	=375	=375
8FFL	.	.	.	.
.	.	.	(>8aaL	.
8AA	.	.	.	.
.	.	.	16fffJk)	.
8C	.	.	16r	.
.	.	.	8ggL	.
8CCJ	.	.	.	.
.	.	.	16eeeJk)	.
.	.	.	16r	.
.	.	8f	.	.
.	.	8r	.	.
.	.	4r	.	.
.	24F'LL	.	.	.
.	(>24f	.	.	.
.	24eJJ	.	.	.
.	24dLL	.	.	.
.	24c	.	.	.
.	24BnJJ	.	.	.
.	24cLL	.	.	.
.	24d	.	.	.
.	24cJJ	.	.	.
.	24B-XLL	.	.	.
.	24A	.	.	.
.	24GJJ)	.	.	.
=376	=376	=376	=376	=376
8FFL	.	.	.	.
.	.	.	(>8aaL	.
8AA	.	.	.	.
.	.	.	16fffJk)	.
8C	.	.	16r	.
.	.	.	8bb-L	.
8CCJ	.	.	.	.
.	.	.	16gggJk)	.
.	.	.	16r	.
.	.	24a'LL	.	.
.	.	(24aa	.	.
.	.	24gg	.	.
.	.	24ff	.	.
.	.	24ee	.	.
.	.	24ddJJ	.	.
.	.	24ccLL	.	.
.	.	24b-	.	.
.	.	24a	.	.
.	.	24g	.	.
.	.	24f	.	.
.	.	24eJJ)	.	.
.	8F	.	.	.
.	8r	.	.	.
.	4r	.	.	.
=377	=377	=377	=377	=377
8FFL	.	.	.	.
.	.	.	(>8aaL	f
8AA	.	.	.	.
.	.	.	16fffJk)	.
8C	.	.	16r	.
.	.	.	8ggL	.
8CCJ	.	.	.	.
.	.	.	16eeeJk)	.
.	.	.	16r	.
.	.	8f	.	.
.	.	8r	.	.
.	.	4r	.	.
.	24F'LL	.	.	.
.	(>24f	.	.	.
.	24eJJ	.	.	.
.	24dLL	.	.	.
.	24c	.	.	.
.	24BnJJ	.	.	.
.	24cLL	.	.	.
.	24d	.	.	.
.	24cJJ	.	.	.
.	24B-XLL	.	.	.
.	24A	.	.	.
.	24GJJ)	.	.	.
=378	=378	=378	=378	=378
8FFL	.	.	.	.
.	.	.	(>8aaL	.
8AA	.	.	.	.
.	.	.	16fffJk)	.
8C	.	.	16r	.
.	.	.	8ggL	.
8CCJ	.	.	.	.
.	.	.	16eeeJk)	.
.	.	.	16r	.
.	.	24f'LL	.	.
.	.	(24ff	.	.
.	.	24ee	.	.
.	.	24dd	.	.
.	.	24cc	.	.
.	.	24bnJJ	.	.
.	.	24ccLL	.	.
.	.	24dd	.	.
.	.	24cc	.	.
.	.	24b-X	.	.
.	.	24a	.	.
.	.	24gJJ)	.	.
.	24F'LL	.	.	.
.	(>24f	.	.	.
.	24eJJ	.	.	.
.	24dLL	.	.	.
.	24c	.	.	.
.	24BnJJ	.	.	.
.	24cLL	.	.	.
.	24d	.	.	.
.	24cJJ	.	.	.
.	24B-XLL	.	.	.
.	24A)	.	.	.
.	24GJJ	.	.	.
=379	=379	=379	=379	=379
8FFL	.	.	.	.
.	.	.	(>8aaL	.
8AA	.	.	.	.
.	.	.	16fffJk)	.
8C	.	.	16r	.
.	.	.	8ggL	.
8CCJ	.	.	.	.
.	.	.	16eeeJk)	.
.	.	.	16r	.
.	.	24f'LL	.	.
.	.	(24ff	.	.
.	.	24ee	.	.
.	.	24dd	.	.
.	.	24cc	.	.
.	.	24bnJJ	.	.
.	.	24ccLL	.	.
.	.	24dd	.	.
.	.	24cc	.	.
.	.	24b-X	.	.
.	.	24a	.	.
.	.	24gJJ)	.	.
.	24F'LL	.	.	.
.	(>24f	.	.	.
.	24eJJ	.	.	.
.	24dLL	.	.	.
.	24c	.	.	.
.	24BnJJ	.	.	.
.	24cLL	.	.	.
.	24d	.	.	.
.	24cJJ	.	.	.
.	24B-XLL	.	.	.
.	24A	.	.	.
.	24GJJ)	.	.	.
=380	=380	=380	=380	=380
4FF'	.	.	.	.
.	.	.	4fff	.
4CC'~	.	.	.	.
.	.	.	4g 4b- 4ee	ff
.	.	4f	.	.
.	.	4G 4e 4cc	.	.
.	4A	.	.	.
.	4C	.	.	.
=381	=381	=381	=381	=381
4FF'~	.	.	.	.
.	.	.	4f 4a 4ff	.
4r	.	.	.	.
.	.	.	4r	.
.	.	4A 4f 4cc	.	.
.	.	4r	.	.
.	4F	.	.	.
.	4r	.	.	.
==	==	==	==	==
*-	*-	*-	*-	*-
!!!system-decoration: [(s1,s2,s3,s4)]
!!!RDF**kern: > = above
!!!RDF**kern: < = below
